Cumberkid/Learning-the-Optimal-Solution-Path/data/reweighted-logistic-regression/jacobi/exact_soln_list_jacobi.csv
losses,theta_0,theta_1,theta_2,theta_3,theta_4,theta_5,theta_6,theta_7,theta_8,theta_9,theta_10,theta_11,theta_12,theta_13,theta_14,theta_15,theta_16,theta_17,theta_18,theta_19,theta_20,theta_21,theta_22,theta_23,theta_24,theta_25,theta_26,theta_27,theta_28,theta_29,theta_30,theta_31,theta_32,theta_33,theta_34,theta_35,theta_36,theta_37,theta_38,theta_39,theta_40,theta_41,theta_42,theta_43,theta_44,theta_45
0.1907932460308075,-0.3730289340019226,0.18662208318710327,0.22744253277778625,-0.023582644760608673,0.1648222655057907,0.14299193024635315,0.16801752150058746,0.026305092498660088,0.1426609754562378,0.07106249034404755,0.20113664865493774,0.19267180562019348,0.25387275218963623,-0.02647673338651657,0.24720413982868195,-0.06212640553712845,-0.02647673338651657,0.14299193024635315,-0.021805066615343094,0.0,-0.036061570048332214,0.0,0.26368242502212524,0.14050240814685822,0.07106249034404755,0.12063628435134888,-0.009016461670398712,-0.026716524735093117,0.0,0.03573298454284668,0.03573298454284668,-0.026716524735093117,-0.005628651939332485,0.0,0.0,-0.03126976266503334,-0.01800960674881935,0.05490801855921745,-0.005628651939332485,0.0,0.0,-0.03126976266503334,-0.01800960674881935,-0.13960841298103333,-0.11683952063322067,-0.06167297810316086
0.19213013350963593,-0.3712121844291687,0.18663427233695984,0.22758635878562927,-0.023679116740822792,0.1648751050233841,0.14226225018501282,0.1674281805753708,0.025959912687540054,0.14299269020557404,0.07079816609621048,0.20130415260791779,0.1918780505657196,0.25428900122642517,-0.0264065470546484,0.24638254940509796,-0.06162416934967041,-0.0264065470546484,0.14226225018501282,-0.02179080992937088,9.778850653674453e-05,-0.036073505878448486,1.0923409718088806e-05,0.26347410678863525,0.14071866869926453,0.07079816609621048,0.11985816806554794,-0.00892767682671547,-0.026723673567175865,6.689495057798922e-05,0.035448603332042694,0.035448603332042694,-0.026520922780036926,-0.00565667450428009,6.857537664473057e-05,9.783366840565577e-05,-0.031115146353840828,-0.017599668353796005,0.054199494421482086,-0.00565667450428009,6.857537664473057e-05,9.783366840565577e-05,-0.031115146353840828,-0.017599668353796005,-0.13938476145267487,-0.11640160530805588,-0.06122634559869766
0.1934630572795868,-0.3694007694721222,0.18664541840553284,0.22772878408432007,-0.023774854838848114,0.16492678225040436,0.14153528213500977,0.16684167087078094,0.025615088641643524,0.1433233767747879,0.07053422182798386,0.20146983861923218,0.19108842313289642,0.2547028660774231,-0.026336733251810074,0.2455640286207199,-0.06112545356154442,-0.026336733251810074,0.14153528213500977,-0.021776413545012474,0.0001953916798811406,-0.036085765808820724,2.182853495469317e-05,0.2632668614387512,0.14093410968780518,0.07053422182798386,0.11908302456140518,-0.008839395828545094,-0.026731127873063087,0.00013360564480535686,0.03516552969813347,0.03516552969813347,-0.02632613107562065,-0.005684752017259598,0.00013698445400223136,0.00019544328097254038,-0.03096119500696659,-0.017191071063280106,0.0534934364259243,-0.005684752017259598,0.00013698445400223136,0.00019544328097254038,-0.03096119500696659,-0.017191071063280106,-0.13916166126728058,-0.11596471071243286,-0.06078094244003296
0.1947920322418213,-0.36759454011917114,0.18665553629398346,0.22786980867385864,-0.02386987954378128,0.1649772971868515,0.140811026096344,0.16625797748565674,0.025270622223615646,0.14365306496620178,0.07027065008878708,0.20163379609584808,0.19030290842056274,0.25511446595191956,-0.026267269626259804,0.2447485625743866,-0.060630250722169876,-0.026267269626259804,0.140811026096344,-0.021761884912848473,0.000292809447273612,-0.03609835356473923,3.2715302950236946e-05,0.263060599565506,0.14114871621131897,0.07027065008878708,0.11831080913543701,-0.008751614019274712,-0.02673887088894844,0.00020013260655105114,0.034883759915828705,0.034883759915828705,-0.026132145896553993,-0.005712877959012985,0.00020522737759165466,0.00029282906325533986,-0.030807897448539734,-0.016783807426691055,0.052789825946092606,-0.005712877959012985,0.00020522737759165466,0.00029282906325533986,-0.030807897448539734,-0.016783807426691055,-0.13893914222717285,-0.11552880704402924,-0.06033676862716675
0.1961170732975006,-0.36579352617263794,0.18666458129882812,0.2280094474554062,-0.02396419085562229,0.16502662003040314,0.14008940756320953,0.16567710041999817,0.02492651902139187,0.14398175477981567,0.07000744342803955,0.20179595053195953,0.18952146172523499,0.2555237114429474,-0.026198163628578186,0.24393606185913086,-0.06013857573270798,-0.026198163628578186,0.14008940756320953,-0.021747220307588577,0.0003900416777469218,-0.036111269146203995,4.3583640945144e-05,0.2628553807735443,0.1413625329732895,0.07000744342803955,0.11754149198532104,-0.008664332330226898,-0.026746904477477074,0.0002664763596840203,0.0346032939851284,0.0346032939851284,-0.025938959792256355,-0.005741057451814413,0.00027330423472449183,0.0003899911534972489,-0.03065524995326996,-0.016377879306674004,0.052088662981987,-0.005741057451814413,0.00027330423472449183,0.0003899911534972489,-0.03065524995326996,-0.016377879306674004,-0.1387171745300293,-0.115093894302845,-0.059893812984228134
0.19743821024894714,-0.3639977276325226,0.18667259812355042,0.2281477153301239,-0.024057790637016296,0.16507482528686523,0.13937047123908997,0.16509902477264404,0.02458278089761734,0.1443094164133072,0.06974462419748306,0.20195630192756653,0.18874406814575195,0.25593069195747375,-0.026129400357604027,0.24312663078308105,-0.05965034291148186,-0.026129400357604027,0.13937047123908997,-0.021732423454523087,0.00048708825488574803,-0.03612449765205383,5.44334870937746e-05,0.26265114545822144,0.14157550036907196,0.06974462419748306,0.11677507311105728,-0.00857754610478878,-0.02675522491335869,0.00033263739896938205,0.03432411327958107,0.03432411327958107,-0.02574656903743744,-0.005769283976405859,0.000341215287335217,0.00048692984273657203,-0.030503254383802414,-0.015973279252648354,0.05138994753360748,-0.005769283976405859,0.000341215287335217,0.00048692984273657203,-0.030503254383802414,-0.015973279252648354,-0.13849574327468872,-0.11465997993946075,-0.059452079236507416
0.1987553983926773,-0.3622070848941803,0.18667957186698914,0.228284552693367,-0.0241506677120924,0.16512185335159302,0.1386541724205017,0.16452372074127197,0.024239419028162956,0.14463604986667633,0.06948218494653702,0.20211489498615265,0.18797072768211365,0.25633540749549866,-0.026060985401272774,0.24232017993927002,-0.059165578335523605,-0.026060985401272774,0.1386541724205017,-0.021717486903071404,0.0005839490331709385,-0.03613804280757904,6.52647577226162e-05,0.26244789361953735,0.14178766310214996,0.06948218494653702,0.11601155996322632,-0.008491253480315208,-0.026763826608657837,0.0003986162773799151,0.034046221524477005,0.034046221524477005,-0.025554968044161797,-0.005797558929771185,0.0004089606227353215,0.000583645305596292,-0.030351897701621056,-0.01557000633329153,0.05069364979863167,-0.005797558929771185,0.0004089606227353215,0.000583645305596292,-0.030351897701621056,-0.01557000633329153,-0.13827483355998993,-0.1142270416021347,-0.0590115487575531
0.20006877183914185,-0.3604215979576111,0.1866854876279831,0.22842000424861908,-0.024242836982011795,0.16516771912574768,0.13794049620628357,0.16395120322704315,0.02389642409980297,0.14496171474456787,0.06922011077404022,0.20227177441120148,0.18720141053199768,0.2567378282546997,-0.02599290944635868,0.24151669442653656,-0.05868424475193024,-0.02599290944635868,0.13794049620628357,-0.021702418103814125,0.0006806239252910018,-0.036151908338069916,7.607739826198667e-05,0.26224565505981445,0.1419990211725235,0.06922011077404022,0.11525090783834457,-0.008405455388128757,-0.02677270770072937,0.00046441366430372,0.03376960754394531,0.03376960754394531,-0.02536414936184883,-0.00582588417455554,0.0004765404446516186,0.0006801377749070525,-0.03020118735730648,-0.015168051235377789,0.049999773502349854,-0.00582588417455554,0.0004765404446516186,0.0006801377749070525,-0.03020118735730648,-0.015168051235377789,-0.1380544751882553,-0.11379509419202805,-0.05857221782207489
0.2013782262802124,-0.3586411774158478,0.18669041991233826,0.22855409979820251,-0.024334298446774483,0.165212482213974,0.13722945749759674,0.16338147222995758,0.023553822189569473,0.14528633654117584,0.06895842403173447,0.20242686569690704,0.18643607199192047,0.2571379840373993,-0.02592516876757145,0.24071620404720306,-0.05820632725954056,-0.02592516876757145,0.13722945749759674,-0.021687215194106102,0.0007771129021421075,-0.03616608306765556,8.687132503837347e-05,0.26204439997673035,0.14220955967903137,0.06895842403173447,0.11449310928583145,-0.008320145308971405,-0.02678186632692814,0.0005300298798829317,0.033494263887405396,0.033494263887405396,-0.02517411857843399,-0.0058542536571621895,0.0005439548986032605,0.0007764076581224799,-0.03005111776292324,-0.014767419546842575,0.04930831864476204,-0.0058542536571621895,0.0005439548986032605,0.0007764076581224799,-0.03005111776292324,-0.014767419546842575,-0.13783463835716248,-0.11336412280797958,-0.05813410505652428
0.20268386602401733,-0.35686585307121277,0.18669432401657104,0.2286868542432785,-0.02442505583167076,0.1652560979127884,0.13652104139328003,0.1628144532442093,0.023211605846881866,0.14560994505882263,0.06869710981845856,0.2025802582502365,0.18567471206188202,0.25753581523895264,-0.025857755914330482,0.23991866409778595,-0.057731810957193375,-0.025857755914330482,0.13652104139328003,-0.021671876311302185,0.0008734158473089337,-0.036180559545755386,9.76464943960309e-05,0.26184406876564026,0.14241927862167358,0.06869710981845856,0.11373813450336456,-0.008235323242843151,-0.026791296899318695,0.0005954655352979898,0.033220186829566956,0.033220186829566956,-0.02498486265540123,-0.005882670171558857,0.0006112041883170605,0.0008724549552425742,-0.02990167774260044,-0.014368098229169846,0.04861925542354584,-0.005882670171558857,0.0006112041883170605,0.0008724549552425742,-0.02990167774260044,-0.014368098229169846,-0.13761529326438904,-0.11293412744998932,-0.05769716575741768
0.20398563146591187,-0.3550955653190613,0.18669715523719788,0.2288181334733963,-0.024515101686120033,0.16529855132102966,0.13581521809101105,0.16225016117095947,0.0228697769343853,0.14593254029750824,0.06843618303537369,0.2027319222688675,0.18491731584072113,0.25793150067329407,-0.02579067461192608,0.23912405967712402,-0.057260654866695404,-0.02579067461192608,0.13581521809101105,-0.021656405180692673,0.0009695327607914805,-0.03619534522294998,0.00010840284812729806,0.26164475083351135,0.14262819290161133,0.06843618303537369,0.1129860207438469,-0.008150986395776272,-0.02680099569261074,0.0006607213290408254,0.032947368919849396,0.032947368919849396,-0.0247963834553957,-0.005911129526793957,0.0006782885175198317,0.0009682803065516055,-0.02975287288427353,-0.013970090076327324,0.04793258011341095,-0.005911129526793957,0.0006782885175198317,0.0009682803065516055,-0.02975287288427353,-0.013970090076327324,-0.13739646971225739,-0.11250509321689606,-0.05726141855120659
0.20528359711170197,-0.3533303141593933,0.1866990476846695,0.22894813120365143,-0.02460443787276745,0.16533991694450378,0.1351119875907898,0.16168858110904694,0.02252833917737007,0.14625412225723267,0.06817563623189926,0.2028818577528,0.18416380882263184,0.2583248019218445,-0.025723911821842194,0.23833240568637848,-0.05679285153746605,-0.025723911821842194,0.1351119875907898,-0.021640796214342117,0.001065463526174426,-0.03621043264865875,0.00011914029164472595,0.26144635677337646,0.1428362876176834,0.06817563623189926,0.11223668605089188,-0.008067134767770767,-0.026810962706804276,0.0007257976103574038,0.03267580643296242,0.03267580643296242,-0.0246086698025465,-0.0059396349824965,0.0007452081190422177,0.0010638833045959473,-0.02960469201207161,-0.013573387637734413,0.04724830761551857,-0.0059396349824965,0.0007452081190422177,0.0010638833045959473,-0.02960469201207161,-0.013573387637734413,-0.13717813789844513,-0.1120770275592804,-0.05682685598731041
0.20657777786254883,-0.3515700399875641,0.18669989705085754,0.22907671332359314,-0.024693068116903305,0.16538013517856598,0.1344113051891327,0.16112971305847168,0.022187301889061928,0.1465747058391571,0.06791547685861588,0.20303010940551758,0.1834142506122589,0.258715957403183,-0.025657465681433678,0.23754365742206573,-0.05632837861776352,-0.025657465681433678,0.1344113051891327,-0.021625060588121414,0.0011612079106271267,-0.0362258218228817,0.0001298587885685265,0.2612488865852356,0.14304359257221222,0.06791547685861588,0.1114901676774025,-0.007983763702213764,-0.026821186766028404,0.0007906948449090123,0.03240548074245453,0.03240548074245453,-0.02442171983420849,-0.005968181882053614,0.0008119631092995405,0.0011592647060751915,-0.029457131400704384,-0.013177991844713688,0.046566400676965714,-0.005968181882053614,0.0008119631092995405,0.0011592647060751915,-0.029457131400704384,-0.013177991844713688,-0.13696026802062988,-0.11164993047714233,-0.05639346316456795
0.20786812901496887,-0.349814772605896,0.1866997480392456,0.2292039543390274,-0.0247809998691082,0.16541928052902222,0.13371320068836212,0.1605735421180725,0.021846676245331764,0.14689430594444275,0.06765569746494293,0.2031766176223755,0.1826685667037964,0.25910484790802,-0.02559133991599083,0.2367578148841858,-0.05586721748113632,-0.02559133991599083,0.13371320068836212,-0.021609188988804817,0.0012567662633955479,-0.03624150902032852,0.00014055825886316597,0.26105234026908875,0.14325007796287537,0.06765569746494293,0.11074640601873398,-0.007900871336460114,-0.026831675320863724,0.0008554138476029038,0.032136403024196625,0.032136403024196625,-0.02423553168773651,-0.005996772553771734,0.0008785538375377655,0.0012544249184429646,-0.0293101966381073,-0.012783892452716827,0.04588686674833298,-0.005996772553771734,0.0008785538375377655,0.0012544249184429646,-0.0293101966381073,-0.012783892452716827,-0.13674288988113403,-0.11122378706932068,-0.0559612400829792
0.20915476977825165,-0.3480644226074219,0.18669858574867249,0.22932979464530945,-0.024868231266736984,0.16545727849006653,0.1330176293849945,0.16002002358436584,0.021506447345018387,0.14721286296844482,0.06739629805088043,0.20332148671150208,0.18192672729492188,0.25949153304100037,-0.025525525212287903,0.23597484827041626,-0.055409349501132965,-0.025525525212287903,0.1330176293849945,-0.021593185141682625,0.001352138351649046,-0.036257486790418625,0.00015123866614885628,0.2608567476272583,0.14345574378967285,0.06739629805088043,0.11000540852546692,-0.00781845673918724,-0.026842419058084488,0.0009199549676850438,0.03186855837702751,0.03186855837702751,-0.024050097912549973,-0.006025401875376701,0.0009449804201722145,0.001349363592453301,-0.02916387841105461,-0.012391090393066406,0.04520968347787857,-0.006025401875376701,0.0009449804201722145,0.001349363592453301,-0.02916387841105461,-0.012391090393066406,-0.1365259736776352,-0.11079858988523483,-0.05553017556667328
0.2104375660419464,-0.3463189899921417,0.18669643998146057,0.22945432364940643,-0.02495475858449936,0.16549420356750488,0.13232460618019104,0.15946917235851288,0.02116662822663784,0.1475304365158081,0.06713729351758957,0.20346464216709137,0.18118873238563538,0.25987592339515686,-0.02546001225709915,0.23519477248191833,-0.05495477095246315,-0.02546001225709915,0.13232460618019104,-0.021577047184109688,0.001447324175387621,-0.03627375513315201,0.00016189992311410606,0.2606620192527771,0.14366063475608826,0.06713729351758957,0.10926719754934311,-0.007736516185104847,-0.026853417977690697,0.000984319020062685,0.031601935625076294,0.031601935625076294,-0.02386542037129402,-0.0060540721751749516,0.0010112430900335312,0.0014440813101828098,-0.02901817113161087,-0.0119995828717947,0.04453486204147339,-0.0060540721751749516,0.0010112430900335312,0.0014440813101828098,-0.02901817113161087,-0.0119995828717947,-0.13630951941013336,-0.1103743389248848,-0.055100273340940475
0.2117166966199875,-0.34457844495773315,0.18669328093528748,0.2295774668455124,-0.02504059113562107,0.1655299961566925,0.13163408637046814,0.15892097353935242,0.02082722820341587,0.147846981883049,0.06687867641448975,0.20360614359378815,0.1804545521736145,0.26025816798210144,-0.025394804775714874,0.23441754281520844,-0.0545034296810627,-0.025394804775714874,0.13163408637046814,-0.021560778841376305,0.0015423237346112728,-0.03629031032323837,0.0001725420297589153,0.2604682147502899,0.1438647210597992,0.06687867641448975,0.10853168368339539,-0.007655047345906496,-0.026864662766456604,0.001048506237566471,0.03133653476834297,0.03133653476834297,-0.023681486025452614,-0.006082780193537474,0.0010773420799523592,0.0015385784208774567,-0.02887307107448578,-0.011609364300966263,0.043862372636795044,-0.006082780193537474,0.0010773420799523592,0.0015385784208774567,-0.02887307107448578,-0.011609364300966263,-0.13609351217746735,-0.10995104163885117,-0.054671511054039
0.2129921019077301,-0.3428427577018738,0.18668915331363678,0.2296992689371109,-0.025125723332166672,0.16556474566459656,0.130946084856987,0.15837538242340088,0.020488252863287926,0.14816255867481232,0.06662044674158096,0.20374596118927002,0.17972415685653687,0.26063817739486694,-0.025329891592264175,0.23364318907260895,-0.054055310785770416,-0.025329891592264175,0.130946084856987,-0.021544380113482475,0.001637136796489358,-0.03630715608596802,0.0001831648696679622,0.26027530431747437,0.14406798779964447,0.06662044674158096,0.10779890418052673,-0.007574049755930901,-0.026876157149672508,0.0011125172022730112,0.03107234463095665,0.03107234463095665,-0.0234982930123806,-0.006111527793109417,0.0011432776227593422,0.0016328555066138506,-0.028728578239679337,-0.011220425367355347,0.043192218989133835,-0.006111527793109417,0.0011432776227593422,0.0016328555066138506,-0.028728578239679337,-0.011220425367355347,-0.13587795197963715,-0.10952868312597275,-0.05424389988183975
0.21426379680633545,-0.3411118984222412,0.18668405711650848,0.22981970012187958,-0.025210166350007057,0.16559839248657227,0.13026057183742523,0.15783244371414185,0.02014969289302826,0.14847709238529205,0.06636259704828262,0.20388418436050415,0.17899754643440247,0.26101601123809814,-0.025265276432037354,0.2328716516494751,-0.05361040681600571,-0.025265276432037354,0.13026057183742523,-0.021527845412492752,0.0017317637102678418,-0.036324284970760345,0.00019376841373741627,0.26008325815200806,0.14427046477794647,0.06636259704828262,0.10706881433725357,-0.007493520155549049,-0.026887891814112663,0.0011763526126742363,0.03080936148762703,0.03080936148762703,-0.02331584319472313,-0.006140313111245632,0.0012090499512851238,0.0017269118689000607,-0.028584688901901245,-0.01083276979625225,0.042524389922618866,-0.006140313111245632,0.0012090499512851238,0.0017269118689000607,-0.028584688901901245,-0.01083276979625225,-0.13566282391548157,-0.10910724848508835,-0.05381743237376213
0.21553176641464233,-0.33938583731651306,0.186677947640419,0.2299388349056244,-0.025293907150626183,0.16563095152378082,0.12957754731178284,0.15729209780693054,0.019811565056443214,0.1487906575202942,0.06610514223575592,0.20402072370052338,0.17827466130256653,0.26139163970947266,-0.02520095184445381,0.23210294544696808,-0.05316869914531708,-0.02520095184445381,0.12957754731178284,-0.02151118591427803,0.001826204708777368,-0.03634169325232506,0.00020435263286344707,0.259892076253891,0.1444721668958664,0.06610514223575592,0.10634143650531769,-0.007413458079099655,-0.02689986675977707,0.0012400129344314337,0.030547579750418663,0.030547579750418663,-0.023134121671319008,-0.00616913428530097,0.0012746592983603477,0.001820748788304627,-0.028441397473216057,-0.010446391068398952,0.04185887426137924,-0.00616913428530097,0.0012746592983603477,0.001820748788304627,-0.028441397473216057,-0.010446391068398952,-0.1354481279850006,-0.10868675261735916,-0.05339209362864494
0.21679605543613434,-0.33766457438468933,0.18667085468769073,0.23005658388137817,-0.02537696622312069,0.16566245257854462,0.12889698147773743,0.15675431489944458,0.019473863765597343,0.14910317957401276,0.06584808975458145,0.20415565371513367,0.17755553126335144,0.26176509261131287,-0.025136910378932953,0.2313370555639267,-0.052730150520801544,-0.025136910378932953,0.12889698147773743,-0.021494388580322266,0.0019204583950340748,-0.03635937720537186,0.00021491741063073277,0.25970178842544556,0.14467303454875946,0.06584808975458145,0.10561671853065491,-0.007333856541663408,-0.02691207453608513,0.0013034988660365343,0.030286990106105804,0.030286990106105804,-0.022953132167458534,-0.006197990849614143,0.0013401058968156576,0.0019143656827509403,-0.02829870395362377,-0.010061284527182579,0.04119566082954407,-0.006197990849614143,0.0013401058968156576,0.0019143656827509403,-0.02829870395362377,-0.010061284527182579,-0.13523384928703308,-0.10826719552278519,-0.05296787992119789
0.21805670857429504,-0.33594805002212524,0.18666285276412964,0.2301730364561081,-0.025459332391619682,0.16569286584854126,0.1282188892364502,0.15621912479400635,0.019136596471071243,0.14941473305225372,0.06559143215417862,0.20428897440433502,0.17684009671211243,0.2621363401412964,-0.025073152035474777,0.23057396709918976,-0.05229475721716881,-0.025073152035474777,0.1282188892364502,-0.02147746831178665,0.002014526631683111,-0.03637733682990074,0.00022546274703927338,0.2595123052597046,0.14487314224243164,0.06559143215417862,0.10489466786384583,-0.007254718337208033,-0.02692451886832714,0.0013668108731508255,0.030027583241462708,0.030027583241462708,-0.02277286723256111,-0.00622688140720129,0.0014053902123123407,0.002007763832807541,-0.028156593441963196,-0.009677447378635406,0.04053474962711334,-0.00622688140720129,0.0014053902123123407,0.002007763832807541,-0.028156593441963196,-0.009677447378635406,-0.13501997292041779,-0.10784854739904404,-0.052544787526130676
0.21931368112564087,-0.3342362344264984,0.18665385246276855,0.2302880883216858,-0.025541013106703758,0.16572223603725433,0.12754322588443756,0.15568649768829346,0.018799778074026108,0.1497252881526947,0.06533513963222504,0.20442062616348267,0.1761283427476883,0.2625054717063904,-0.025009674951434135,0.22981365025043488,-0.05186251178383827,-0.025009674951434135,0.12754322588443756,-0.021460413932800293,0.002108408138155937,-0.036395568400621414,0.00023598858388140798,0.25932368636131287,0.14507244527339935,0.06533513963222504,0.10417524725198746,-0.0071760378777980804,-0.026937192305922508,0.001429949188604951,0.02976936101913452,0.02976936101913452,-0.022593321278691292,-0.00625580595806241,0.0014705124776810408,0.002100943122059107,-0.028015077114105225,-0.009294873103499413,0.03987611457705498,-0.00625580595806241,0.0014705124776810408,0.002100943122059107,-0.028015077114105225,-0.009294873103499413,-0.13480651378631592,-0.1074308231472969,-0.0521228089928627
0.22056704759597778,-0.3325291574001312,0.18664388358592987,0.230401873588562,-0.025622010231018066,0.16575056314468384,0.12686999142169952,0.15515641868114471,0.018463389948010445,0.1500348299741745,0.06507925689220428,0.20455072820186615,0.17542028427124023,0.2628723978996277,-0.02494647167623043,0.22905607521533966,-0.05143335461616516,-0.02494647167623043,0.12686999142169952,-0.021443231031298637,0.0022021038457751274,-0.03641406446695328,0.0002464948920533061,0.2591358721256256,0.14527097344398499,0.06507925689220428,0.1034584790468216,-0.007097817026078701,-0.02695009484887123,0.0014929149765521288,0.029512306675314903,0.029512306675314903,-0.022414494305849075,-0.006284762639552355,0.0015354726929217577,0.002193903084844351,-0.02787414938211441,-0.00891356635838747,0.03921976685523987,-0.006284762639552355,0.0015354726929217577,0.002193903084844351,-0.02787414938211441,-0.00891356635838747,-0.1345934420824051,-0.107014000415802,-0.05170193687081337
0.221816748380661,-0.33082669973373413,0.18663300573825836,0.2305143177509308,-0.025702325627207756,0.16577783226966858,0.1261991709470749,0.15462887287139893,0.018127448856830597,0.1503433734178543,0.06482376158237457,0.2046792209148407,0.1747158169746399,0.2632371783256531,-0.024883542209863663,0.2283012568950653,-0.05100729316473007,-0.024883542209863663,0.1261991709470749,-0.021425921469926834,0.0022956132888793945,-0.03643283247947693,0.0002569815842434764,0.25894895195961,0.14546866714954376,0.06482376158237457,0.10274433344602585,-0.007020048331469297,-0.02696322090923786,0.0015557082369923592,0.0292564295232296,0.0292564295232296,-0.022236380726099014,-0.006313751917332411,0.0016002710908651352,0.002286644885316491,-0.027733799070119858,-0.00853351317346096,0.03856569156050682,-0.006313751917332411,0.0016002710908651352,0.002286644885316491,-0.027733799070119858,-0.00853351317346096,-0.1343807578086853,-0.10659810155630112,-0.051282163709402084
0.2230629026889801,-0.3291289508342743,0.18662112951278687,0.23062542080879211,-0.025781948119401932,0.16580405831336975,0.12553076446056366,0.1541038453578949,0.017791958525776863,0.15065091848373413,0.06456867605447769,0.2048061192035675,0.17401497066020966,0.26359987258911133,-0.024820875376462936,0.2275492250919342,-0.050584301352500916,-0.024820875376462936,0.12553076446056366,-0.021408479660749435,0.0023889364674687386,-0.03645186126232147,0.00026744866045191884,0.25876277685165405,0.14566561579704285,0.06456867605447769,0.10203276574611664,-0.0069427345879375935,-0.026976563036441803,0.0016183299012482166,0.029001709073781967,0.029001709073781967,-0.022058971226215363,-0.006342771928757429,0.0016649083700031042,0.0023791687563061714,-0.027594026178121567,-0.008154714480042458,0.03791387751698494,-0.006342771928757429,0.0016649083700031042,0.0023791687563061714,-0.027594026178121567,-0.008154714480042458,-0.13416846096515656,-0.10618309676647186,-0.05086350068449974
0.2243054360151291,-0.32743579149246216,0.18660837411880493,0.23073521256446838,-0.025860896334052086,0.16582925617694855,0.12486477196216583,0.15358132123947144,0.017456907778978348,0.15095749497413635,0.06431397050619125,0.20493145287036896,0.17331771552562714,0.2639603912830353,-0.02475847862660885,0.2267998903989792,-0.050164394080638885,-0.02475847862660885,0.12486477196216583,-0.02139091305434704,0.002482073847204447,-0.036471154540777206,0.0002778960042633116,0.25857746601104736,0.14586177468299866,0.06431397050619125,0.10132379829883575,-0.0068658688105642796,-0.026990124955773354,0.0016807802021503448,0.02874813973903656,0.02874813973903656,-0.02188226953148842,-0.00637182267382741,0.0017293845303356647,0.002471474464982748,-0.027454830706119537,-0.007777167484164238,0.03726431727409363,-0.00637182267382741,0.0017293845303356647,0.002471474464982748,-0.027454830706119537,-0.007777167484164238,-0.13395653665065765,-0.10576901584863663,-0.05044592171907425
0.22554439306259155,-0.32574722170829773,0.18659459054470062,0.2308436781167984,-0.02593916282057762,0.16585339605808258,0.12420112639665604,0.15306128561496735,0.017122330144047737,0.1512630730867386,0.06405965983867645,0.20505523681640625,0.17262406647205353,0.2643187642097473,-0.024696338921785355,0.22605326771736145,-0.04974748566746712,-0.024696338921785355,0.12420112639665604,-0.021373214200139046,0.002575024962425232,-0.036490704864263535,0.00028832367388531566,0.25839290022850037,0.1460571438074112,0.06405965983867645,0.10061737149953842,-0.006789450533688068,-0.027003902941942215,0.0017430600710213184,0.02849571593105793,0.02849571593105793,-0.021706264466047287,-0.006400900427252054,0.0017937000375241041,0.0025635631754994392,-0.027316199615597725,-0.007400860078632832,0.0366169773042202,-0.006400900427252054,0.0017937000375241041,0.0025635631754994392,-0.027316199615597725,-0.007400860078632832,-0.1337449997663498,-0.10535581409931183,-0.05002941936254501
0.2267797589302063,-0.3240632116794586,0.18657991290092468,0.23095086216926575,-0.02601676806807518,0.16587653756141663,0.12353987991809845,0.15254373848438263,0.01678820699453354,0.15156762301921844,0.06380575150251389,0.205177441239357,0.17193393409252167,0.2646750509738922,-0.024634454399347305,0.225309357047081,-0.0493335984647274,-0.024634454399347305,0.12353987991809845,-0.021355388686060905,0.0026677902787923813,-0.03651051223278046,0.0002987315529026091,0.25820913910865784,0.14625173807144165,0.06380575150251389,0.09991354495286942,-0.006713480688631535,-0.02701788954436779,0.001805169740691781,0.028244435787200928,0.028244435787200928,-0.021530956029891968,-0.006430008914321661,0.0018578548915684223,0.0026554344221949577,-0.027178140357136726,-0.007025793194770813,0.03597189858555794,-0.006430008914321661,0.0018578548915684223,0.0026554344221949577,-0.027178140357136726,-0.007025793194770813,-0.1335338056087494,-0.10494350641965866,-0.04961400479078293
0.22801163792610168,-0.3223837614059448,0.18656432628631592,0.23105676472187042,-0.026093678548932076,0.1658986657857895,0.1228809580206871,0.1520286500453949,0.01645454205572605,0.1518712192773819,0.06355224549770355,0.20529809594154358,0.17124736309051514,0.2650292217731476,-0.024572828784585,0.22456811368465424,-0.04892272129654884,-0.024572828784585,0.1228809580206871,-0.021337440237402916,0.002760369796305895,-0.03653057664632797,0.00030911958310753107,0.2580261528491974,0.14644555747509003,0.06355224549770355,0.09921224415302277,-0.006637954618781805,-0.02703208290040493,0.0018671101424843073,0.027994288131594658,0.027994288131594658,-0.021356334909796715,-0.006459145341068506,0.0019218497909605503,0.0027470882050693035,-0.027040643617510796,-0.00665197242051363,0.035329028964042664,-0.006459145341068506,0.0019218497909605503,0.0027470882050693035,-0.027040643617510796,-0.00665197242051363,-0.13332295417785645,-0.10453210026025772,-0.0491996631026268
0.22923994064331055,-0.3207088112831116,0.18654780089855194,0.23116129636764526,-0.026169931516051292,0.16591976583003998,0.12222439795732498,0.15151602029800415,0.01612134464085102,0.15217380225658417,0.06329913437366486,0.2054172307252884,0.17056430876255035,0.2653813064098358,-0.024511447176337242,0.22382958233356476,-0.04851478338241577,-0.024511447176337242,0.12222439795732498,-0.02131936140358448,0.002852763282135129,-0.03655088692903519,0.00031948782270774245,0.2578439712524414,0.14663857221603394,0.06329913437366486,0.09851348400115967,-0.006562869995832443,-0.027046481147408485,0.0019288815092295408,0.02774527482688427,0.02774527482688427,-0.021182402968406677,-0.006488306447863579,0.0019856845028698444,0.002838526386767626,-0.02690371312201023,-0.006279385183006525,0.03468839079141617,-0.006488306447863579,0.0019856845028698444,0.002838526386767626,-0.02690371312201023,-0.006279385183006525,-0.13311246037483215,-0.10412156581878662,-0.04878639057278633
0.23046474158763885,-0.31903836131095886,0.18653032183647156,0.23126456141471863,-0.02624550461769104,0.16593986749649048,0.1215701773762703,0.1510058343410492,0.015788614749908447,0.15247540175914764,0.0630464181303978,0.20553484559059143,0.16988472640514374,0.2657312750816345,-0.024450315162539482,0.223093643784523,-0.04810984432697296,-0.024450315162539482,0.1215701773762703,-0.021301159635186195,0.0029449714347720146,-0.0365714505314827,0.00032983615528792143,0.25766250491142273,0.14683085680007935,0.0630464181303978,0.09781721979379654,-0.006488221697509289,-0.027061084285378456,0.0019904845394194126,0.02749737724661827,0.02749737724661827,-0.02100915089249611,-0.006517494097352028,0.0020493599586188793,0.0029297478031367064,-0.026767335832118988,-0.0059080179780721664,0.03404994308948517,-0.006517494097352028,0.0020493599586188793,0.0029297478031367064,-0.026767335832118988,-0.0059080179780721664,-0.13290230929851532,-0.10371191799640656,-0.048374176025390625
0.23168599605560303,-0.3173723518848419,0.18651197850704193,0.2313665747642517,-0.02632041648030281,0.1659589558839798,0.12091824412345886,0.15049804747104645,0.015456351451575756,0.15277603268623352,0.06279410421848297,0.20565089583396912,0.1692086011171341,0.2660791873931885,-0.024389423429965973,0.22236038744449615,-0.047707803547382355,-0.024389423429965973,0.12091824412345886,-0.021282825618982315,0.0030369937885552645,-0.03659225255250931,0.0003401645226404071,0.2574818432331085,0.14702235162258148,0.06279410421848297,0.09712347388267517,-0.006414012983441353,-0.027075883001089096,0.0020519192330539227,0.02725059539079666,0.02725059539079666,-0.02083658054471016,-0.006546706426888704,0.002112876158207655,0.003020753152668476,-0.026631511747837067,-0.0055378880351781845,0.03341370075941086,-0.006546706426888704,0.002112876158207655,0.003020753152668476,-0.026631511747837067,-0.0055378880351781845,-0.13269248604774475,-0.10330314189195633,-0.047963015735149384
0.23290380835533142,-0.31571078300476074,0.1864927113056183,0.23146723210811615,-0.026394663378596306,0.16597707569599152,0.12026863545179367,0.1499927043914795,0.015124568715691566,0.15307565033435822,0.06254219263792038,0.20576545596122742,0.16853593289852142,0.2664250135421753,-0.024328771978616714,0.2216297835111618,-0.04730871319770813,-0.024328771978616714,0.12026863545179367,-0.021264370530843735,0.003128830576315522,-0.036613304167985916,0.00035047298297286034,0.25730186700820923,0.14721307158470154,0.06254219263792038,0.09643220901489258,-0.006340239197015762,-0.027090877294540405,0.0021131872199475765,0.027004921808838844,0.027004921808838844,-0.020664678886532784,-0.006575944367796183,0.0021762331016361713,0.0031115426681935787,-0.026496239006519318,-0.00516897439956665,0.03277966007590294,-0.006575944367796183,0.0021762331016361713,0.0031115426681935787,-0.026496239006519318,-0.00516897439956665,-0.13248299062252045,-0.10289524495601654,-0.04755290597677231
0.23411810398101807,-0.31405365467071533,0.18647253513336182,0.2315666675567627,-0.026468243449926376,0.16599419713020325,0.11962132155895233,0.14948974549770355,0.01479326467961073,0.1533743143081665,0.062290675938129425,0.20587852597236633,0.16786669194698334,0.26676875352859497,-0.024268360808491707,0.22090178728103638,-0.046912480145692825,-0.024268360808491707,0.11962132155895233,-0.021245790645480156,0.0032204824965447187,-0.036634597927331924,0.00036076141986995935,0.25712263584136963,0.1474030315876007,0.062290675938129425,0.09574344009160995,-0.006266899406909943,-0.027106065303087234,0.0021742885001003742,0.026760350912809372,0.026760350912809372,-0.02049345150589943,-0.006605203729122877,0.002239431720227003,0.003202117746695876,-0.026361513882875443,-0.004801275208592415,0.03214777633547783,-0.006605203729122877,0.002239431720227003,0.003202117746695876,-0.026361513882875443,-0.004801275208592415,-0.1322738230228424,-0.102488212287426,-0.0471438430249691
0.23532894253730774,-0.3124009072780609,0.18645146489143372,0.2316647469997406,-0.026541147381067276,0.16601033508777618,0.11897627264261246,0.14898917078971863,0.014462429098784924,0.1536719650030136,0.062039561569690704,0.20599015057086945,0.16720086336135864,0.2671104371547699,-0.024208173155784607,0.22017636895179749,-0.046519145369529724,-0.024208173155784607,0.11897627264261246,-0.02122708596289158,0.0033119486179202795,-0.036656126379966736,0.00037102983333170414,0.2569441497325897,0.1475922167301178,0.062039561569690704,0.09505708515644073,-0.006193986628204584,-0.027121441438794136,0.0022352230735123158,0.026516873389482498,0.026516873389482498,-0.020322885364294052,-0.00663448590785265,0.0023024720139801502,0.00329247722402215,-0.026227334514260292,-0.004434802569448948,0.03151809424161911,-0.00663448590785265,0.0023024720139801502,0.00329247722402215,-0.026227334514260292,-0.004434802569448948,-0.13206495344638824,-0.10208205878734589,-0.04673582315444946
0.23653636872768402,-0.3107525110244751,0.1864294856786728,0.2317616194486618,-0.026613421738147736,0.16602547466754913,0.11833351850509644,0.14849093556404114,0.014132095500826836,0.15396864712238312,0.061788853257894516,0.2061002552509308,0.16653838753700256,0.2674500644207001,-0.02414822205901146,0.2194536030292511,-0.046128686517477036,-0.02414822205901146,0.11833351850509644,-0.021208256483078003,0.0034032296389341354,-0.03667788952589035,0.0003812781360466033,0.2567663788795471,0.1477806121110916,0.061788853257894516,0.0943732038140297,-0.006121503189206123,-0.02713700197637081,0.002295992337167263,0.026274481788277626,0.026274481788277626,-0.0201529823243618,-0.006663790438324213,0.0023653539828956127,0.0033826215658336878,-0.02609368786215782,-0.0040695262141525745,0.03089055046439171,-0.006663790438324213,0.0023653539828956127,0.0033826215658336878,-0.02609368786215782,-0.0040695262141525745,-0.13185638189315796,-0.10167674720287323,-0.0463288314640522
0.23774027824401855,-0.3091084659099579,0.186406672000885,0.23185718059539795,-0.026685019955039024,0.16603967547416687,0.11769302189350128,0.14799508452415466,0.013802239671349525,0.15426436066627502,0.061538539826869965,0.20620886981487274,0.16587932407855988,0.2677876651287079,-0.02408849634230137,0.21873340010643005,-0.04574105143547058,-0.02408849634230137,0.11769302189350128,-0.02118930220603943,0.003494326025247574,-0.036699894815683365,0.00039150641532614827,0.2565893232822418,0.14796829223632812,0.061538539826869965,0.09369176626205444,-0.0060494448989629745,-0.02715274691581726,0.002356596291065216,0.026033181697130203,0.026033181697130203,-0.01998373307287693,-0.006693114992231131,0.002428078558295965,0.0034725519362837076,-0.025960585102438927,-0.003705463372170925,0.030265167355537415,-0.006693114992231131,0.002428078558295965,0.0034725519362837076,-0.025960585102438927,-0.003705463372170925,-0.13164813816547394,-0.10127229988574982,-0.045922864228487015
0.23894083499908447,-0.3074687421321869,0.18638287484645844,0.2319515347480774,-0.026755960658192635,0.1660528928041458,0.11705475300550461,0.14750158786773682,0.013472866266965866,0.15455909073352814,0.06128863990306854,0.2063160538673401,0.16522353887557983,0.26812323927879333,-0.024028994143009186,0.21801573038101196,-0.04535624757409096,-0.024028994143009186,0.11705475300550461,-0.021170223131775856,0.003585237078368664,-0.03672212362289429,0.0004017145256511867,0.25641298294067383,0.14815518260002136,0.06128863990306854,0.0930127203464508,-0.005977813620120287,-0.027168674394488335,0.0024170363321900368,0.025792952626943588,0.025792952626943588,-0.01981513947248459,-0.00672246003523469,0.002490646205842495,0.0035622683353722095,-0.025828011333942413,-0.0033426019363105297,0.02964193746447563,-0.00672246003523469,0.002490646205842495,0.0035622683353722095,-0.025828011333942413,-0.0033426019363105297,-0.1314401775598526,-0.10086869448423386,-0.0455179363489151
0.2401379495859146,-0.30583328008651733,0.1863582730293274,0.232044517993927,-0.02682626247406006,0.16606518626213074,0.11641871184110641,0.1470104157924652,0.013143986463546753,0.15485285222530365,0.06103913113474846,0.20642177760601044,0.16457109153270721,0.26845675706863403,-0.023969709873199463,0.2173006385564804,-0.044974230229854584,-0.023969709873199463,0.11641871184110641,-0.02115102857351303,0.003675963496789336,-0.036744583398103714,0.00041190243791788816,0.25623732805252075,0.1483413279056549,0.06103913113474846,0.09233608096837997,-0.005906600970774889,-0.027184776961803436,0.002477311762049794,0.025553790852427483,0.025553790852427483,-0.01964719034731388,-0.006751823704689741,0.0025530564598739147,0.0036517707630991936,-0.02569596655666828,-0.002980933990329504,0.02902083657681942,-0.006751823704689741,0.0025530564598739147,0.0036517707630991936,-0.02569596655666828,-0.002980933990329504,-0.13123248517513275,-0.10046596080064774,-0.045114003121852875
0.24133166670799255,-0.3042021095752716,0.18633277714252472,0.2321363389492035,-0.026895897462964058,0.16607648134231567,0.11578494310379028,0.14652155339717865,0.01281560119241476,0.15514563024044037,0.0607900395989418,0.20652605593204498,0.1639219969511032,0.26878830790519714,-0.02391064167022705,0.216588094830513,-0.04459501802921295,-0.02391064167022705,0.11578494310379028,-0.02113170549273491,0.0037665050476789474,-0.03676727041602135,0.00042207021033391356,0.2560623288154602,0.14852669835090637,0.0607900395989418,0.09166185557842255,-0.00583580881357193,-0.027201054617762566,0.0025374237447977066,0.025315698236227036,0.025315698236227036,-0.019479889422655106,-0.006781207863241434,0.002615310251712799,0.003741060383617878,-0.02556445449590683,-0.0026204679161310196,0.028401855379343033,-0.006781207863241434,0.002615310251712799,0.003741060383617878,-0.02556445449590683,-0.0026204679161310196,-0.13102510571479797,-0.10006406158208847,-0.04471108317375183
0.2425220012664795,-0.30257517099380493,0.1863064169883728,0.2322268784046173,-0.026964889839291573,0.16608686745166779,0.11515332013368607,0.14603500068187714,0.012487727217376232,0.15543745458126068,0.060541342943906784,0.20662887394428253,0.16327612102031708,0.2691178023815155,-0.02385178580880165,0.21587803959846497,-0.044218577444553375,-0.02385178580880165,0.11515332013368607,-0.021112263202667236,0.003856861963868141,-0.03679018095135689,0.0004322177264839411,0.2558879852294922,0.14871135354042053,0.060541342943906784,0.09099000692367554,-0.0057654352858662605,-0.027217505499720573,0.0025973732117563486,0.02507866360247135,0.02507866360247135,-0.019313227385282516,-0.006810607388615608,0.002677407581359148,0.0038301367312669754,-0.02543346770107746,-0.002261190675199032,0.027785006910562515,-0.006810607388615608,0.002677407581359148,0.0038301367312669754,-0.02543346770107746,-0.002261190675199032,-0.1308179795742035,-0.09966300427913666,-0.04430917277932167
0.24370896816253662,-0.3009524345397949,0.18627916276454926,0.23231616616249084,-0.027033235877752304,0.1660962849855423,0.11452390998601913,0.14555072784423828,0.01216033473610878,0.1557282656431198,0.0602930411696434,0.20673029124736786,0.16263347864151,0.2694453299045563,-0.02379314973950386,0.21517053246498108,-0.04384486749768257,-0.02379314973950386,0.11452390998601913,-0.021092697978019714,0.003947035409510136,-0.03681331127882004,0.000442345131887123,0.25571441650390625,0.14889521896839142,0.0602930411696434,0.09032049030065536,-0.005695473402738571,-0.027234122157096863,0.0026571606285870075,0.02484266832470894,0.02484266832470894,-0.019147198647260666,-0.006840023677796125,0.002739348914474249,0.0039190007373690605,-0.02530299685895443,-0.0019030915573239326,0.02717026323080063,-0.006840023677796125,0.002739348914474249,0.0039190007373690605,-0.02530299685895443,-0.0019030915573239326,-0.1306111365556717,-0.0992627665400505,-0.0439082533121109
0.24489253759384155,-0.2993339002132416,0.18625104427337646,0.2324042171239853,-0.02710093930363655,0.1661047786474228,0.11389670521020889,0.14506874978542328,0.01183344330638647,0.15601815283298492,0.06004516780376434,0.20683030784130096,0.16199418902397156,0.26977086067199707,-0.02373470738530159,0.21446551382541656,-0.043473873287439346,-0.02373470738530159,0.11389670521020889,-0.02107301354408264,0.004037023521959782,-0.036836668848991394,0.0004524521646089852,0.2555413842201233,0.1490783542394638,0.06004516780376434,0.08965334296226501,-0.005625926423817873,-0.027250904589891434,0.0027167857624590397,0.02460773102939129,0.02460773102939129,-0.018981803208589554,-0.00686945766210556,0.0028011349495500326,0.004007651470601559,-0.025173045694828033,-0.0015461812727153301,0.026557624340057373,-0.00686945766210556,0.0028011349495500326,0.004007651470601559,-0.025173045694828033,-0.0015461812727153301,-0.1304045468568802,-0.098863385617733,-0.04350833594799042
0.24607281386852264,-0.2977195084095001,0.1862221509218216,0.23249104619026184,-0.027167998254299164,0.16611239314079285,0.11327168345451355,0.14458903670310974,0.011507069692015648,0.15630705654621124,0.05979767069220543,0.20692889392375946,0.16135798394680023,0.2700943648815155,-0.023676477372646332,0.21376298367977142,-0.043105609714984894,-0.023676477372646332,0.11327168345451355,-0.02105320803821087,0.004126828163862228,-0.036860231310129166,0.0004625388537533581,0.2553690969944,0.1492607295513153,0.05979767069220543,0.08898855745792389,-0.00555679015815258,-0.027267850935459137,0.0027762497775256634,0.024373825639486313,0.024373825639486313,-0.018817037343978882,-0.00689890468493104,0.0028627654537558556,0.004096090793609619,-0.025043610483407974,-0.001190445851534605,0.025947075337171555,-0.00689890468493104,0.0028627654537558556,0.004096090793609619,-0.025043610483407974,-0.001190445851534605,-0.13019822537899017,-0.09846481680870056,-0.04310940206050873
0.24724972248077393,-0.29610928893089294,0.1861923187971115,0.23257659375667572,-0.027234412729740143,0.16611900925636292,0.11264879256486893,0.1441115438938141,0.011181187815964222,0.15659499168395996,0.05955061316490173,0.20702610909938812,0.16072504222393036,0.2704159915447235,-0.023618442937731743,0.21306297183036804,-0.042740073055028915,-0.023618442937731743,0.11264879256486893,-0.021033281460404396,0.004216448403894901,-0.036884013563394547,0.0004726052866317332,0.2551974058151245,0.1494423747062683,0.05955061316490173,0.08832605183124542,-0.005488061346113682,-0.027284953743219376,0.002835553139448166,0.02414095401763916,0.02414095401763916,-0.018652893602848053,-0.006928367540240288,0.0029242411255836487,0.004184318706393242,-0.024914680048823357,-0.0008358871564269066,0.02533860132098198,-0.006928367540240288,0.0029242411255836487,0.004184318706393242,-0.024914680048823357,-0.0008358871564269066,-0.12999214231967926,-0.09806708991527557,-0.04271145910024643
0.24842330813407898,-0.2945031523704529,0.18616172671318054,0.2326609343290329,-0.02730019949376583,0.16612477600574493,0.11202806234359741,0.1436363160610199,0.01085582748055458,0.15688194334506989,0.05930393934249878,0.20712187886238098,0.1600952446460724,0.27073562145233154,-0.02356061153113842,0.21236535906791687,-0.04237716272473335,-0.02356061153113842,0.11202806234359741,-0.021013235673308372,0.0043058861047029495,-0.03690800815820694,0.0004826514341402799,0.25502634048461914,0.14962325990200043,0.05930393934249878,0.0876658707857132,-0.00541973952203989,-0.027302216738462448,0.0028946963138878345,0.023909106850624084,0.023909106850624084,-0.01848936825990677,-0.006957843899726868,0.002985562663525343,0.004272334277629852,-0.02478625997900963,-0.00048250332474708557,0.02473221719264984,-0.006957843899726868,0.002985562663525343,0.004272334277629852,-0.02478625997900963,-0.00048250332474708557,-0.12978631258010864,-0.09767016023397446,-0.04231448471546173
0.2495936006307602,-0.2929011583328247,0.18613022565841675,0.23274406790733337,-0.027365345507860184,0.16612958908081055,0.111409492790699,0.1431633085012436,0.010530969128012657,0.1571679711341858,0.05905768647789955,0.2072163224220276,0.1594686359167099,0.2710531949996948,-0.023502975702285767,0.21167020499706268,-0.04201690852642059,-0.023502975702285767,0.111409492790699,-0.02099306881427765,0.004395139403641224,-0.036932215094566345,0.0004926770925521851,0.2548559308052063,0.14980342984199524,0.05905768647789955,0.08700798451900482,-0.005351820960640907,-0.027319634333252907,0.0029536797665059566,0.023678284138441086,0.023678284138441086,-0.01832646131515503,-0.006987332832068205,0.0030467300675809383,0.0043601393699646,-0.024658342823386192,-0.00013028178364038467,0.024127885699272156,-0.006987332832068205,0.0030467300675809383,0.0043601393699646,-0.024658342823386192,-0.00013028178364038467,-0.12958072125911713,-0.0972740575671196,-0.04191848635673523
0.25076061487197876,-0.29130321741104126,0.1860979199409485,0.23282593488693237,-0.02742985635995865,0.16613350808620453,0.11079302430152893,0.14269252121448517,0.010206636972725391,0.1574530452489853,0.05881182849407196,0.20730939507484436,0.15884515643119812,0.27136892080307007,-0.023445528000593185,0.21097750961780548,-0.04165933281183243,-0.023445528000593185,0.11079302430152893,-0.020972786471247673,0.004484209232032299,-0.036956630647182465,0.000502682407386601,0.2546861469745636,0.14998281002044678,0.05881182849407196,0.0863523930311203,-0.005284307524561882,-0.027337200939655304,0.0030125039629638195,0.02344847097992897,0.02344847097992897,-0.01816416345536709,-0.007016835268586874,0.0031077431049197912,0.004447733983397484,-0.024530932307243347,0.0002207830548286438,0.023525632917881012,-0.007016835268586874,0.0031077431049197912,0.004447733983397484,-0.024530932307243347,0.0002207830548286438,-0.1293753832578659,-0.096878781914711,-0.04152345284819603
0.2519243061542511,-0.28970932960510254,0.18606474995613098,0.23290663957595825,-0.027493739500641823,0.16613651812076569,0.11017866432666779,0.14222393929958344,0.009882805868983269,0.1577371060848236,0.0585663765668869,0.2074010968208313,0.15822477638721466,0.27168264985084534,-0.023388275876641273,0.2102871835231781,-0.04130434989929199,-0.023388275876641273,0.11017866432666779,-0.020952384918928146,0.004573095589876175,-0.0369812473654747,0.000512667465955019,0.25451695919036865,0.1501615047454834,0.0585663765668869,0.08569907397031784,-0.005217189900577068,-0.02735491469502449,0.0030711700674146414,0.02321966364979744,0.02321966364979744,-0.018002472817897797,-0.007046347018331289,0.0031686024740338326,0.004535118117928505,-0.0244040098041296,0.0005706781521439552,0.02292540669441223,-0.007046347018331289,0.0031686024740338326,0.004535118117928505,-0.0244040098041296,0.0005706781521439552,-0.1291702389717102,-0.09648430347442627,-0.041129376739263535
0.2530847489833832,-0.28811943531036377,0.1860308051109314,0.23298609256744385,-0.027556991204619408,0.1661386489868164,0.10956640541553497,0.1417575627565384,0.009559506550431252,0.1580202430486679,0.05832131579518318,0.2074914276599884,0.15760751068592072,0.2719945013523102,-0.023331206291913986,0.2095993012189865,-0.040951989591121674,-0.023331206291913986,0.10956640541553497,-0.020931866019964218,0.004661799408495426,-0.03700607270002365,0.0005226320354267955,0.25434839725494385,0.15033943951129913,0.05832131579518318,0.08504800498485565,-0.005150473676621914,-0.027372779324650764,0.003129678312689066,0.022991860285401344,0.022991860285401344,-0.017841387540102005,-0.007075871806591749,0.003229309804737568,0.004622292704880238,-0.024277593940496445,0.0009194295853376389,0.022327221930027008,-0.007075871806591749,0.003229309804737568,0.004622292704880238,-0.024277593940496445,0.0009194295853376389,-0.1289653331041336,-0.09609060734510422,-0.040736254304647446
0.2542418837547302,-0.2865335941314697,0.18599598109722137,0.23306436836719513,-0.0276196151971817,0.1661398559808731,0.10895628482103348,0.14129331707954407,0.009236719459295273,0.158302441239357,0.05807667598128319,0.20758041739463806,0.1569933295249939,0.27230438590049744,-0.023274319246411324,0.20891384780406952,-0.0406021773815155,-0.023274319246411324,0.10895628482103348,-0.02091122791171074,0.004750320687890053,-0.03703109174966812,0.0005325761158019304,0.254180371761322,0.15051665902137756,0.05807667598128319,0.08439918607473373,-0.005084149073809385,-0.02739078551530838,0.003188028931617737,0.02276504784822464,0.02276504784822464,-0.017680902034044266,-0.007105403579771519,0.003289863932877779,0.004709256812930107,-0.024151666089892387,0.001267031766474247,0.02173108048737049,-0.007105403579771519,0.003289863932877779,0.004709256812930107,-0.024151666089892387,0.001267031766474247,-0.1287606656551361,-0.09569774568080902,-0.04034408926963806
0.255395770072937,-0.28495168685913086,0.18596041202545166,0.23314140737056732,-0.02768162079155445,0.16614025831222534,0.10834818333387375,0.14083123207092285,0.00891445204615593,0.15858368575572968,0.05783245339989662,0.20766811072826385,0.15638214349746704,0.27261239290237427,-0.023217616602778435,0.20823070406913757,-0.04025498777627945,-0.023217616602778435,0.10834818333387375,-0.020890474319458008,0.00483865849673748,-0.03705631196498871,0.0005424997070804238,0.2540130317211151,0.1506931483745575,0.05783245339989662,0.08375260978937149,-0.005018219351768494,-0.027408931404352188,0.0032462221570312977,0.022539226338267326,0.022539226338267326,-0.017521008849143982,-0.007134946994483471,0.003350265556946397,0.004796011373400688,-0.02402622438967228,0.001613482367247343,0.021136946976184845,-0.007134946994483471,0.003350265556946397,0.004796011373400688,-0.02402622438967228,0.001613482367247343,-0.12855619192123413,-0.0953056663274765,-0.03995285928249359
0.2565465271472931,-0.28337374329566956,0.1859239786863327,0.2332172691822052,-0.027742993086576462,0.16613975167274475,0.10774221271276474,0.14037133753299713,0.008592710830271244,0.15886397659778595,0.05758865177631378,0.20775441825389862,0.1557740718126297,0.2729184925556183,-0.023161087185144424,0.20754998922348022,-0.03991030901670456,-0.023161087185144424,0.10774221271276474,-0.020869603380560875,0.00492681423202157,-0.037081725895404816,0.0005524029256775975,0.2538461685180664,0.15086886286735535,0.05758865177631378,0.08310823142528534,-0.004952678456902504,-0.02742721326649189,0.0033042598515748978,0.022314392030239105,0.022314392030239105,-0.017361707985401154,-0.007164496462792158,0.0034105158410966396,0.00488255824893713,-0.02390126697719097,0.0019587823189795017,0.020544864237308502,-0.007164496462792158,0.0034105158410966396,0.00488255824893713,-0.02390126697719097,0.0019587823189795017,-0.12835194170475006,-0.09491439163684845,-0.03956257179379463
0.25769397616386414,-0.2817997336387634,0.18588677048683167,0.23329192399978638,-0.027803758159279823,0.16613836586475372,0.10713827610015869,0.13991355895996094,0.008271496742963791,0.15914328396320343,0.05734523385763168,0.2078394889831543,0.15516899526119232,0.2732226848602295,-0.02310474030673504,0.2068716287612915,-0.03956816345453262,-0.02310474030673504,0.10713827610015869,-0.02084861695766449,0.005014787428081036,-0.03710734471678734,0.0005622856551781297,0.25367996096611023,0.15104389190673828,0.05734523385763168,0.08246605098247528,-0.0048875282518565655,-0.027445631101727486,0.0033621410839259624,0.022090528160333633,0.022090528160333633,-0.01720299758017063,-0.0071940552443265915,0.0034706140868365765,0.004968896508216858,-0.023776791989803314,0.0023029581643640995,0.019954733550548553,-0.0071940552443265915,0.0034706140868365765,0.004968896508216858,-0.023776791989803314,0.0023029581643640995,-0.12814787030220032,-0.09452390670776367,-0.039173223078250885
0.2588382065296173,-0.2802296280860901,0.18584877252578735,0.23336541652679443,-0.02786390483379364,0.16613613069057465,0.10653634369373322,0.13945791125297546,0.007950803264975548,0.15942168235778809,0.057102229446172714,0.20792318880558014,0.15456686913967133,0.2735249698162079,-0.023048562929034233,0.2061956375837326,-0.039228565990924835,-0.023048562929034233,0.10653634369373322,-0.020827516913414,0.005102579016238451,-0.037133149802684784,0.0005721478955820203,0.25351428985595703,0.15121819078922272,0.057102229446172714,0.08182607591152191,-0.004822768270969391,-0.027464184910058975,0.0034198672510683537,0.02186764031648636,0.02186764031648636,-0.017044872045516968,-0.007223621476441622,0.003530560526996851,0.005055025219917297,-0.023652803152799606,0.0026459847576916218,0.01936662197113037,-0.007223621476441622,0.003530560526996851,0.005055025219917297,-0.023652803152799606,0.0026459847576916218,-0.12794402241706848,-0.09413419663906097,-0.03878479823470116
0.2599792778491974,-0.27866342663764954,0.1858099400997162,0.23343771696090698,-0.027923425659537315,0.16613301634788513,0.10593651235103607,0.13900437951087952,0.007630653213709593,0.15969908237457275,0.056859634816646576,0.20800559222698212,0.15396779775619507,0.27382540702819824,-0.02299254946410656,0.20552191138267517,-0.03889143839478493,-0.02299254946410656,0.10593651235103607,-0.02080629952251911,0.005190188065171242,-0.03715914487838745,0.0005819895304739475,0.2533491849899292,0.15139178931713104,0.056859634816646576,0.08118827641010284,-0.004758388735353947,-0.027482863515615463,0.0034774383530020714,0.02164570987224579,0.02164570987224579,-0.016887322068214417,-0.0072531928308308125,0.0035903570242226124,0.005140947178006172,-0.023529283702373505,0.0029878863133490086,0.018780522048473358,-0.0072531928308308125,0.0035903570242226124,0.005140947178006172,-0.023529283702373505,0.0029878863133490086,-0.12774035334587097,-0.09374526888132095,-0.03839728981256485
0.2611171305179596,-0.2771010994911194,0.18577034771442413,0.2335088551044464,-0.02798233926296234,0.16612906754016876,0.1053386777639389,0.1385529488325119,0.007311022840440273,0.15997560322284698,0.05661745369434357,0.20808671414852142,0.15337160229682922,0.2741239666938782,-0.022936716675758362,0.20485050976276398,-0.038556814193725586,-0.022936716675758362,0.1053386777639389,-0.02078496664762497,0.00527761597186327,-0.03718532621860504,0.000591810792684555,0.25318461656570435,0.15156464278697968,0.05661745369434357,0.08055268973112106,-0.004694393835961819,-0.0275016687810421,0.0035348557867109776,0.02142474614083767,0.02142474614083767,-0.016730349510908127,-0.007282771170139313,0.003650002647191286,0.005226661451160908,-0.023406239226460457,0.003328672144562006,0.018196390941739082,-0.007282771170139313,0.003650002647191286,0.005226661451160908,-0.023406239226460457,0.003328672144562006,-0.1275368630886078,-0.0933571308851242,-0.03801071643829346
0.2622517943382263,-0.27554261684417725,0.1857299506664276,0.23357874155044556,-0.02804064378142357,0.16612425446510315,0.10474284738302231,0.13810358941555023,0.00699193961918354,0.160251185297966,0.05637568607926369,0.20816656947135925,0.15277841687202454,0.2744206488132477,-0.02288103476166725,0.2041814774274826,-0.038224682211875916,-0.02288103476166725,0.10474284738302231,-0.020763522014021873,0.005364862270653248,-0.03721170127391815,0.0006016114493831992,0.25302058458328247,0.151736781001091,0.05637568607926369,0.07991920411586761,-0.004630781710147858,-0.027520598843693733,0.0035921186208724976,0.021204732358455658,0.021204732358455658,-0.0165739506483078,-0.007312352769076824,0.0037094992585480213,0.005312168970704079,-0.023283665999770164,0.0036683310754597187,0.017614208161830902,-0.007312352769076824,0.0037094992585480213,0.005312168970704079,-0.023283665999770164,0.0036683310754597187,-0.12733356654644012,-0.09296976029872894,-0.037625037133693695
0.26338332891464233,-0.27398788928985596,0.1856888234615326,0.23364757001399994,-0.028098339214920998,0.16611863672733307,0.10414903610944748,0.1376563310623169,0.006673379335552454,0.16052578389644623,0.05613430589437485,0.20824512839317322,0.15218812227249146,0.27471548318862915,-0.02282552421092987,0.2035147100687027,-0.037894926965236664,-0.02282552421092987,0.10414903610944748,-0.020741965621709824,0.005451926961541176,-0.03723824769258499,0.00061139150056988,0.25285711884498596,0.15190820395946503,0.05613430589437485,0.07928791642189026,-0.004567546304315329,-0.027539649978280067,0.0036492287181317806,0.020985666662454605,0.020985666662454605,-0.01641811989247799,-0.007341939955949783,0.0037688445299863815,0.00539746880531311,-0.02316155657172203,0.004006861709058285,0.017034010961651802,-0.007341939955949783,0.0037688445299863815,0.00539746880531311,-0.02316155657172203,0.004006861709058285,-0.1271304488182068,-0.09258317202329636,-0.037240270525217056
0.26451170444488525,-0.2724370062351227,0.18564683198928833,0.23371514678001404,-0.028155438601970673,0.16611215472221375,0.10355718433856964,0.13721109926700592,0.006355362478643656,0.16079945862293243,0.05589336156845093,0.2083224356174469,0.1516007035970688,0.27500849962234497,-0.022770171985030174,0.20285025238990784,-0.03756764531135559,-0.022770171985030174,0.10355718433856964,-0.02072029747068882,0.0055388109758496284,-0.03726498410105705,0.0006211510626599193,0.25269418954849243,0.15207891166210175,0.05589336156845093,0.07865868508815765,-0.004504682496190071,-0.02755882404744625,0.0037061856128275394,0.020767541602253914,0.020767541602253914,-0.016262851655483246,-0.007371528539806604,0.003828041721135378,0.005482562351971865,-0.023039918392896652,0.0043442887254059315,0.016455739736557007,-0.007371528539806604,0.003828041721135378,0.005482562351971865,-0.023039918392896652,0.0043442887254059315,-0.12692752480506897,-0.09219734370708466,-0.036856409162282944
0.2656369209289551,-0.27088990807533264,0.18560415506362915,0.2337815910577774,-0.02821192517876625,0.16610485315322876,0.10296733677387238,0.1367679238319397,0.006037874147295952,0.16107220947742462,0.055652812123298645,0.20839852094650269,0.1510162055492401,0.27529963850975037,-0.022714976221323013,0.20218798518180847,-0.03724278509616852,-0.022714976221323013,0.10296733677387238,-0.020698511973023415,0.005625513847917318,-0.03729189932346344,0.0006308900192379951,0.2525317668914795,0.15224891901016235,0.055652812123298645,0.07803164422512054,-0.00444219633936882,-0.027578111737966537,0.0037629911676049232,0.020550347864627838,0.020550347864627838,-0.01610814966261387,-0.007401120848953724,0.003887089667841792,0.005567450076341629,-0.022918734699487686,0.004680597689002752,0.015879448503255844,-0.007401120848953724,0.003887089667841792,0.005567450076341629,-0.022918734699487686,0.004680597689002752,-0.1267247349023819,-0.09181228280067444,-0.036473456770181656
0.2667590081691742,-0.26934659481048584,0.1855606585741043,0.23384691774845123,-0.028267813846468925,0.1660967320203781,0.10237948596477509,0.13632680475711823,0.005720940418541431,0.1613440364599228,0.0554126612842083,0.2084732949733734,0.15043453872203827,0.2755889594554901,-0.022659938782453537,0.20152804255485535,-0.03692030906677246,-0.022659938782453537,0.10237948596477509,-0.020676616579294205,0.0057120369747281075,-0.037318989634513855,0.0006406084867194295,0.25236982107162476,0.15241821110248566,0.0554126612842083,0.07740668952465057,-0.004380080848932266,-0.027597514912486076,0.0038196449168026447,0.020334087312221527,0.020334087312221527,-0.015954000875353813,-0.007430714555084705,0.003945988602936268,0.005652132444083691,-0.022798016667366028,0.005015802104026079,0.01530510000884533,-0.007430714555084705,0.003945988602936268,0.005652132444083691,-0.022798016667366028,0.005015802104026079,-0.12652212381362915,-0.09142797440290451,-0.03609137237071991
0.2678779661655426,-0.2678069472312927,0.1855163723230362,0.23391105234622955,-0.028323089703917503,0.1660877764225006,0.1017935574054718,0.13588771224021912,0.00540454126894474,0.16161493957042694,0.05517292767763138,0.20854687690734863,0.14985574781894684,0.275876522064209,-0.022605042904615402,0.2008703649044037,-0.036600224673748016,-0.022605042904615402,0.1017935574054718,-0.02065460942685604,0.005798378959298134,-0.037346251308918,0.0006503063486889005,0.2522084414958954,0.15258680284023285,0.05517292767763138,0.07678382843732834,-0.004318336956202984,-0.02761702425777912,0.003876147326081991,0.020118743181228638,0.020118743181228638,-0.01580040343105793,-0.007460310123860836,0.004004740156233311,0.005736608989536762,-0.022677747532725334,0.005349909886717796,0.014732638373970985,-0.007460310123860836,0.004004740156233311,0.005736608989536762,-0.022677747532725334,0.005349909886717796,-0.12631969153881073,-0.09104441106319427,-0.035710178315639496
0.2689938247203827,-0.26627102494239807,0.18547143042087555,0.23397405445575714,-0.02837778441607952,0.16607803106307983,0.1012095957994461,0.13545063138008118,0.00508867995813489,0.1618848592042923,0.05493362247943878,0.20861919224262238,0.14927980303764343,0.27616220712661743,-0.0225503072142601,0.20021486282348633,-0.036282479763031006,-0.0225503072142601,0.1012095957994461,-0.020632486790418625,0.005884540267288685,-0.03737369179725647,0.0006599836051464081,0.2520475387573242,0.15275467932224274,0.05493362247943878,0.07616304606199265,-0.004256960935890675,-0.02763664722442627,0.003932498395442963,0.01990431919693947,0.01990431919693947,-0.01564735732972622,-0.007489906158298254,0.00406334362924099,0.005820880644023418,-0.022557929158210754,0.005682903807610273,0.014162136241793633,-0.007489906158298254,0.00406334362924099,0.005820880644023418,-0.022557929158210754,0.005682903807610273,-0.12611737847328186,-0.09066162258386612,-0.035329874604940414
0.27010661363601685,-0.2647387981414795,0.18542571365833282,0.23403587937355042,-0.028431884944438934,0.16606751084327698,0.10062756389379501,0.1350155621767044,0.004773378372192383,0.16215389966964722,0.05469472333788872,0.2086903154850006,0.14870662987232208,0.27644604444503784,-0.02249571867287159,0.19956161081790924,-0.0359671413898468,-0.02249571867287159,0.10062756389379501,-0.020610257983207703,0.005970521830022335,-0.03740130364894867,0.0006696402560919523,0.25188717246055603,0.1529218554496765,0.05469472333788872,0.0755443423986435,-0.004195951856672764,-0.027656378224492073,0.003988699987530708,0.01969081163406372,0.01969081163406372,-0.015494858846068382,-0.007519503124058247,0.004121800418943167,0.005904947407543659,-0.022438563406467438,0.006014810409396887,0.013593536801636219,-0.007519503124058247,0.004121800418943167,0.005904947407543659,-0.022438563406467438,0.006014810409396887,-0.12591522932052612,-0.09027957916259766,-0.03495044633746147
0.2712162733078003,-0.2632102370262146,0.18537920713424683,0.23409660160541534,-0.02848539501428604,0.16605611145496368,0.10004744678735733,0.13458247482776642,0.004458611831068993,0.16242198646068573,0.05445621907711029,0.20876021683216095,0.14813627302646637,0.27672815322875977,-0.02244127355515957,0.19891056418418884,-0.035654060542583466,-0.02244127355515957,0.10004744678735733,-0.020587923005223274,0.0060563236474990845,-0.0374290868639946,0.0006792763015255332,0.25172722339630127,0.15308833122253418,0.05445621907711029,0.0749276876449585,-0.004135304130613804,-0.027676211670041084,0.0040447525680065155,0.01947820745408535,0.01947820745408535,-0.015342903323471546,-0.007549097295850515,0.0041801100596785545,0.0059888106770813465,-0.022319642826914787,0.006345629692077637,0.01302684098482132,-0.007549097295850515,0.0041801100596785545,0.0059888106770813465,-0.022319642826914787,0.006345629692077637,-0.12571322917938232,-0.08989828824996948,-0.03457188606262207
0.2723228335380554,-0.261685311794281,0.18533195555210114,0.23415622115135193,-0.028538307175040245,0.1660439670085907,0.09946927428245544,0.1341513693332672,0.004144405480474234,0.162689208984375,0.054218124598264694,0.2088288813829422,0.14756862819194794,0.2770085036754608,-0.02238696627318859,0.19826170802116394,-0.035343363881111145,-0.02238696627318859,0.09946927428245544,-0.020565472543239594,0.006141946651041508,-0.03745703026652336,0.0006888919160701334,0.2515678107738495,0.15325412154197693,0.054218124598264694,0.07431308925151825,-0.004075019154697657,-0.027696143835783005,0.00410065520554781,0.019266504794359207,0.019266504794359207,-0.015191485174000263,-0.007578690070658922,0.004238272085785866,0.006072469986975193,-0.022201167419552803,0.0066753532737493515,0.01246203389018774,-0.007578690070658922,0.004238272085785866,0.006072469986975193,-0.022201167419552803,0.0066753532737493515,-0.12551139295101166,-0.08951772749423981,-0.03419419750571251
0.2734264135360718,-0.2601640820503235,0.18528401851654053,0.23421470820903778,-0.02859063632786274,0.16603101789951324,0.09889295697212219,0.1337222307920456,0.0038307243958115578,0.16295547783374786,0.053980447351932526,0.20889639854431152,0.14700379967689514,0.2772870361804962,-0.022332806140184402,0.19761504232883453,-0.0350349023938179,-0.022332806140184402,0.09889295697212219,-0.020542917773127556,0.006227390840649605,-0.03748514875769615,0.0006984869251027703,0.2514088451862335,0.15341924130916595,0.053980447351932526,0.07370051741600037,-0.004015093669295311,-0.027716180309653282,0.00415640976279974,0.019055696204304695,0.019055696204304695,-0.015040603466331959,-0.007608283776789904,0.004296289756894112,0.006155925802886486,-0.022083135321736336,0.007003996055573225,0.011899110861122608,-0.007608283776789904,0.004296289756894112,0.006155925802886486,-0.022083135321736336,0.007003996055573225,-0.12530966103076935,-0.08913791179656982,-0.033817362040281296
0.2745268940925598,-0.2586463689804077,0.18523529171943665,0.2342720627784729,-0.028642384335398674,0.1660173088312149,0.09831856936216354,0.13329505920410156,0.0035176053643226624,0.1632208228111267,0.05374317616224289,0.20896270871162415,0.14644169807434082,0.27756378054618835,-0.022278785705566406,0.19697055220603943,-0.034728772938251495,-0.022278785705566406,0.09831856936216354,-0.020520251244306564,0.006312654819339514,-0.037513427436351776,0.0007080611540004611,0.25125035643577576,0.1535836160182953,0.05374317616224289,0.07309000194072723,-0.003955527674406767,-0.02773630991578102,0.004212016239762306,0.018845785409212112,0.018845785409212112,-0.01489025354385376,-0.007637873291969299,0.004354160279035568,0.006239177659153938,-0.02196553722023964,0.007331555243581533,0.011338083073496819,-0.007637873291969299,0.004354160279035568,0.006239177659153938,-0.02196553722023964,0.007331555243581533,-0.12510809302330017,-0.08875882625579834,-0.03344138711690903
0.2756243348121643,-0.25713229179382324,0.18518586456775665,0.2343282550573349,-0.02869355119764805,0.1660028100013733,0.09774605929851532,0.13286982476711273,0.0032050441950559616,0.16348522901535034,0.053506314754486084,0.20902784168720245,0.14588230848312378,0.2778387665748596,-0.022224897518754005,0.19632822275161743,-0.03442493826150894,-0.022224897518754005,0.09774605929851532,-0.020497474819421768,0.006397739984095097,-0.03754185885190964,0.0007176147773861885,0.2510923147201538,0.1537473350763321,0.053506314754486084,0.07248145341873169,-0.003896312089636922,-0.02775653451681137,0.004267474636435509,0.018636740744113922,0.018636740744113922,-0.014740427024662495,-0.007667458150535822,0.0044118864461779594,0.006322227418422699,-0.021848373115062714,0.007658054120838642,0.010778926312923431,-0.007667458150535822,0.0044118864461779594,0.006322227418422699,-0.021848373115062714,0.007658054120838642,-0.12490662932395935,-0.08838048577308655,-0.033066265285015106
0.27671876549720764,-0.2556217610836029,0.18513572216033936,0.23438337445259094,-0.028744125738739967,0.1659875363111496,0.09717544913291931,0.1324465274810791,0.002893041353672743,0.16374875605106354,0.05326985940337181,0.20909179747104645,0.14532561600208282,0.2781120538711548,-0.02217113971710205,0.19568802416324615,-0.034123316407203674,-0.02217113971710205,0.09717544913291931,-0.020474594086408615,0.006482647731900215,-0.03757046163082123,0.0007271479116752744,0.25093477964401245,0.15391036868095398,0.05326985940337181,0.0718749538064003,-0.0038374518044292927,-0.027776848524808884,0.004322786815464497,0.018428582698106766,0.018428582698106766,-0.014591122046113014,-0.007697039283812046,0.004469466395676136,0.006405074615031481,-0.02173164114356041,0.007983473129570484,0.01022162102162838,-0.007697039283812046,0.004469466395676136,0.006405074615031481,-0.02173164114356041,0.007983473129570484,-0.12470529228448868,-0.08800283819437027,-0.032691992819309235
0.27781006693840027,-0.2541147768497467,0.18508486449718475,0.23443739116191864,-0.028794148936867714,0.16597148776054382,0.09660665690898895,0.13202515244483948,0.002581574022769928,0.16401135921478271,0.05303383618593216,0.20915457606315613,0.144771546125412,0.2783834934234619,-0.02211751602590084,0.19505000114440918,-0.03382394462823868,-0.02211751602590084,0.09660665690898895,-0.020451601594686508,0.006567375734448433,-0.03759921342134476,0.0007366604404523969,0.2507776618003845,0.15407268702983856,0.05303383618593216,0.07127037644386292,-0.003778946353122592,-0.02779725380241871,0.004377950914204121,0.018221288919448853,0.018221288919448853,-0.014442343264818192,-0.007726618088781834,0.004526901990175247,0.006487719714641571,-0.021615339443087578,0.008307811804115772,0.009666170924901962,-0.007726618088781834,0.004526901990175247,0.006487719714641571,-0.021615339443087578,0.008307811804115772,-0.12450408935546875,-0.08762595057487488,-0.032318562269210815
0.2788984775543213,-0.25261130928993225,0.18503323197364807,0.2344902902841568,-0.028843577951192856,0.16595467925071716,0.09603971987962723,0.13160569965839386,0.0022706761956214905,0.16427308320999146,0.05279819294810295,0.20921620726585388,0.144220232963562,0.2786532938480377,-0.022064022719860077,0.19441406428813934,-0.03352678567171097,-0.022064022719860077,0.09603971987962723,-0.020428506657481194,0.0066519263200461864,-0.03762812912464142,0.0007461523055098951,0.25062096118927,0.15423431992530823,0.05279819294810295,0.07066784054040909,-0.0037207903806120157,-0.027817748486995697,0.004432969726622105,0.018014870584011078,0.018014870584011078,-0.014294087886810303,-0.007756190374493599,0.004584194160997868,0.006570161320269108,-0.02149946801364422,0.008631094358861446,0.009112577885389328,-0.007756190374493599,0.004584194160997868,0.006570161320269108,-0.02149946801364422,0.008631094358861446,-0.12430299073457718,-0.08724978566169739,-0.03194596618413925
0.2799838185310364,-0.25111132860183716,0.18498100340366364,0.2345421314239502,-0.028892438858747482,0.1659371256828308,0.09547466784715652,0.13118809461593628,0.0019603371620178223,0.16453386843204498,0.05256298556923866,0.2092767208814621,0.14367152750492096,0.27892130613327026,-0.02201065793633461,0.19378025829792023,-0.03323184698820114,-0.02201065793633461,0.09547466784715652,-0.020405303686857224,0.006736299954354763,-0.03765718638896942,0.0007556235650554299,0.2504647374153137,0.15439528226852417,0.05256298556923866,0.07006725668907166,-0.0036629762034863234,-0.0278383307158947,0.004487843252718449,0.017809316515922546,0.017809316515922546,-0.01414634007960558,-0.007785756140947342,0.004641341976821423,0.006652403622865677,-0.021384017542004585,0.008953317068517208,0.008560835383832455,-0.007785756140947342,0.004641341976821423,0.006652403622865677,-0.021384017542004585,0.008953317068517208,-0.12410202622413635,-0.08687432110309601,-0.03157419338822365
0.2810662090778351,-0.249614879488945,0.18492797017097473,0.23459284007549286,-0.028940729796886444,0.16591881215572357,0.09491144120693207,0.1307724267244339,0.0016505476087331772,0.1647937297821045,0.0523281991481781,0.2093360722064972,0.14312544465065002,0.2791876196861267,-0.02195741981267929,0.19314850866794586,-0.03293907269835472,-0.02195741981267929,0.09491144120693207,-0.020381994545459747,0.006820494309067726,-0.03768640384078026,0.0007650742772966623,0.25030893087387085,0.15455558896064758,0.0523281991481781,0.06946861743927002,-0.003605509642511606,-0.02785898745059967,0.004542571492493153,0.017604611814022064,0.017604611814022064,-0.013999100774526596,-0.007815313525497913,0.004698347300291061,0.006734444759786129,-0.02126898616552353,0.009274497628211975,0.00801087822765112,-0.007815313525497913,0.004698347300291061,0.006734444759786129,-0.02126898616552353,0.009274497628211975,-0.12390115112066269,-0.08649957925081253,-0.0312032587826252
0.282145619392395,-0.24812185764312744,0.1848742961883545,0.23464244604110718,-0.028988447040319443,0.16589972376823425,0.09434998780488968,0.13035863637924194,0.0013413135893642902,0.16505271196365356,0.05209377035498619,0.20939427614212036,0.1425820142030716,0.27945226430892944,-0.021904297173023224,0.19251887500286102,-0.03264852985739708,-0.021904297173023224,0.09434998780488968,-0.020358582958579063,0.0069045135751366615,-0.03771577030420303,0.0007745045004412532,0.250153511762619,0.15471521019935608,0.05209377035498619,0.06887190043926239,-0.0035483879037201405,-0.027879729866981506,0.004597155377268791,0.017400754615664482,0.017400754615664482,-0.013852369040250778,-0.007844869047403336,0.0047552092000842094,0.006816285662353039,-0.02115437388420105,0.009594603441655636,0.007462766952812672,-0.007844869047403336,0.0047552092000842094,0.006816285662353039,-0.02115437388420105,0.009594603441655636,-0.12370038777589798,-0.08612556010484695,-0.030833136290311813
0.2832219898700714,-0.24663226306438446,0.18481990694999695,0.23469099402427673,-0.02903561107814312,0.1658799797296524,0.09379041194915771,0.12994666397571564,0.0010326467454433441,0.165310800075531,0.0518597848713398,0.20945137739181519,0.14204111695289612,0.2797151207923889,-0.021851304918527603,0.1918914020061493,-0.032360076904296875,-0.021851304918527603,0.09379041194915771,-0.020335061475634575,0.006988354027271271,-0.03774528577923775,0.000783913885243237,0.2499985545873642,0.15487413108348846,0.0518597848713398,0.06827719509601593,-0.0034916058648377657,-0.02790054678916931,0.004651594907045364,0.017197737470269203,0.017197737470269203,-0.01370613370090723,-0.007874412462115288,0.004811928607523441,0.006897926330566406,-0.0210401751101017,0.009913668036460876,0.006916466169059277,-0.007874412462115288,0.004811928607523441,0.006897926330566406,-0.0210401751101017,0.009913668036460876,-0.12349973618984222,-0.0857522189617157,-0.030463848263025284
0.2842954695224762,-0.24514612555503845,0.18476484715938568,0.23473848402500153,-0.029082197695970535,0.1658594161272049,0.09323257207870483,0.12953659892082214,0.0007245396263897419,0.165568009018898,0.051626212894916534,0.20950733125209808,0.14150279760360718,0.27997633814811707,-0.021798428148031235,0.19126585125923157,-0.032073795795440674,-0.021798428148031235,0.09323257207870483,-0.020311441272497177,0.007072017528116703,-0.0377749502658844,0.0007933028973639011,0.2498439997434616,0.15503238141536713,0.051626212894916534,0.06768432259559631,-0.0034351644571870565,-0.027921443805098534,0.004705890081822872,0.01699557527899742,0.01699557527899742,-0.01356041245162487,-0.007903947494924068,0.004868505522608757,0.006979366764426231,-0.020926393568515778,0.010231689549982548,0.0063719963654875755,-0.007903947494924068,0.004868505522608757,0.006979366764426231,-0.020926393568515778,0.010231689549982548,-0.12329915910959244,-0.08537959307432175,-0.03009536676108837
0.2853659987449646,-0.24366337060928345,0.1847090721130371,0.23478487133979797,-0.02912823297083378,0.16583815217018127,0.0926765501499176,0.1291283369064331,0.0004169926978647709,0.165824294090271,0.0513930469751358,0.20956221222877502,0.14096704125404358,0.2802358567714691,-0.02174566313624382,0.19064246118068695,-0.031789667904376984,-0.02174566313624382,0.0926765501499176,-0.020287713035941124,0.007155505940318108,-0.037804752588272095,0.0008026713039726019,0.24968983232975006,0.15518999099731445,0.0513930469751358,0.06709340959787369,-0.003379060886800289,-0.027942413464188576,0.004760042764246464,0.016794241964817047,0.016794241964817047,-0.013415179215371609,-0.007933475077152252,0.004924940876662731,0.007060606963932514,-0.020813018083572388,0.010548664256930351,0.005829307250678539,-0.007933475077152252,0.004924940876662731,0.007060606963932514,-0.020813018083572388,0.010548664256930351,-0.12309868633747101,-0.0850076824426651,-0.029727693647146225
0.28643354773521423,-0.24218401312828064,0.18465262651443481,0.23483020067214966,-0.0291737150400877,0.16581617295742035,0.09212232381105423,0.1287219375371933,0.00011001806706190109,0.16607967019081116,0.05116026848554611,0.20961599051952362,0.1404338777065277,0.28049367666244507,-0.021693017333745956,0.19002103805541992,-0.03150765597820282,-0.021693017333745956,0.09212232381105423,-0.020263882353901863,0.007238816469907761,-0.03783470392227173,0.0008120191050693393,0.24953609704971313,0.15534693002700806,0.05116026848554611,0.06650439649820328,-0.0033232932910323143,-0.02796345017850399,0.004814052954316139,0.01659373566508293,0.01659373566508293,-0.013270439580082893,-0.007962992414832115,0.004981234669685364,0.0071416497230529785,-0.020700056105852127,0.010864612646400928,0.005288410000503063,-0.007962992414832115,0.004981234669685364,0.0071416497230529785,-0.020700056105852127,0.010864612646400928,-0.12289831042289734,-0.08463644981384277,-0.029360827058553696
0.2874981462955475,-0.24070799350738525,0.1845955103635788,0.2348744422197342,-0.029218634590506554,0.16579347848892212,0.09156985580921173,0.12831732630729675,-0.00019639963284134865,0.16633416712284088,0.050927914679050446,0.20966865122318268,0.1399032473564148,0.2807498574256897,-0.021640485152602196,0.18940173089504242,-0.031227752566337585,-0.021640485152602196,0.09156985580921173,-0.020239949226379395,0.007321951910853386,-0.03786478936672211,0.0008213463006541133,0.24938270449638367,0.15550318360328674,0.050927914679050446,0.0659172460436821,-0.0032678546849638224,-0.027984559535980225,0.0048679206520318985,0.016394054517149925,0.016394054517149925,-0.01312619261443615,-0.007992498576641083,0.005037387832999229,0.0072224922478199005,-0.0205874964594841,0.01117952074855566,0.004749285988509655,-0.007992498576641083,0.005037387832999229,0.0072224922478199005,-0.0205874964594841,0.01117952074855566,-0.12269801646471024,-0.08426592499017715,-0.028994746506214142
0.2885598838329315,-0.23923537135124207,0.18453770875930786,0.23491764068603516,-0.029262999072670937,0.1657700538635254,0.0910191535949707,0.12791454792022705,-0.0005022576078772545,0.16658779978752136,0.05069600045681,0.20972025394439697,0.1393749862909317,0.28100430965423584,-0.02158806473016739,0.1887844204902649,-0.030949905514717102,-0.02158806473016739,0.0910191535949707,-0.020215913653373718,0.007404910400509834,-0.037895020097494125,0.0008306529489345849,0.24922972917556763,0.1556587666273117,0.05069600045681,0.06533202528953552,-0.0032127511221915483,-0.02800573967397213,0.004921646323055029,0.016195185482501984,0.016195185482501984,-0.012982429936528206,-0.00802199449390173,0.005093400366604328,0.007303136400878429,-0.020475337281823158,0.011493397876620293,0.004211963154375553,-0.00802199449390173,0.005093400366604328,0.007303136400878429,-0.020475337281823158,0.011493397876620293,-0.12249781936407089,-0.08389610052108765,-0.028629474341869354
0.28961867094039917,-0.23776602745056152,0.1844792664051056,0.23495978116989136,-0.029306810349225998,0.16574591398239136,0.09047022461891174,0.1275135576725006,-0.000807550735771656,0.16684050858020782,0.050464462488889694,0.20977072417736053,0.13884936273097992,0.2812572121620178,-0.02153574489057064,0.18816907703876495,-0.03067415952682495,-0.02153574489057064,0.09047022461891174,-0.020191777497529984,0.007487695198506117,-0.03792538493871689,0.000839938991703093,0.24907714128494263,0.15581372380256653,0.050464462488889694,0.06474862992763519,-0.003157975384965539,-0.02802697941660881,0.004975231364369392,0.015997126698493958,0.015997126698493958,-0.012839149683713913,-0.00805148109793663,0.00514927227050066,0.007383583579212427,-0.020363574847579002,0.011806240305304527,0.0036763837561011314,-0.00805148109793663,0.00514927227050066,0.007383583579212427,-0.020363574847579002,0.011806240305304527,-0.12229767441749573,-0.08352693915367126,-0.028264977037906647
0.2906745970249176,-0.23629997670650482,0.1844201534986496,0.23500089347362518,-0.02935008890926838,0.1657210737466812,0.08992301672697067,0.12711437046527863,-0.0011122752912342548,0.16709233820438385,0.05023333430290222,0.2098202109336853,0.13832615315914154,0.2815083861351013,-0.021483544260263443,0.18755577504634857,-0.03040039911866188,-0.021483544260263443,0.08992301672697067,-0.020167537033557892,0.007570303976535797,-0.0379558801651001,0.0008492044871672988,0.2489248812198639,0.15596799552440643,0.05023333430290222,0.0641670823097229,-0.0031035272404551506,-0.028048284351825714,0.005028675310313702,0.015799883753061295,0.015799883753061295,-0.012696354649960995,-0.008080952800810337,0.005205005407333374,0.007463833317160606,-0.02025221288204193,0.012118075974285603,0.003142549656331539,-0.008080952800810337,0.005205005407333374,0.007463833317160606,-0.02025221288204193,0.012118075974285603,-0.12209764122962952,-0.083158478140831,-0.027901286259293556
0.29172760248184204,-0.23483723402023315,0.1843603402376175,0.23504090309143066,-0.029392804950475693,0.16569554805755615,0.08937756717205048,0.12671694159507751,-0.0014164261519908905,0.16734328866004944,0.050002627074718475,0.20986858010292053,0.13780546188354492,0.2817579209804535,-0.021431438624858856,0.1869443953037262,-0.030128788203001022,-0.021431438624858856,0.08937756717205048,-0.02014319784939289,0.007652739062905312,-0.03798651695251465,0.0008584496099501848,0.24877305328845978,0.15612159669399261,0.050002627074718475,0.06358742713928223,-0.003049406222999096,-0.028069647029042244,0.0050819795578718185,0.015603434294462204,0.015603434294462204,-0.012554029002785683,-0.008110412396490574,0.005260598845779896,0.00754388514906168,-0.02014124020934105,0.012428889982402325,0.0026105092838406563,-0.008110412396490574,0.005260598845779896,0.00754388514906168,-0.02014124020934105,0.012428889982402325,-0.12189765274524689,-0.08279068768024445,-0.027538370341062546
0.2927777171134949,-0.23337775468826294,0.18429991602897644,0.23507989943027496,-0.02943497896194458,0.16566933691501617,0.0888337790966034,0.12632131576538086,-0.0017200112342834473,0.16759338974952698,0.04977230727672577,0.2099159061908722,0.13728712499141693,0.2820058763027191,-0.021379441022872925,0.18633505702018738,-0.029859168455004692,-0.021379441022872925,0.0888337790966034,-0.020118756219744682,0.007734997197985649,-0.03801728039979935,0.0008676741272211075,0.24862152338027954,0.15627454221248627,0.04977230727672577,0.0630096048116684,-0.0029956067446619272,-0.0280910711735487,0.0051351431757211685,0.015407787635922432,0.015407787635922432,-0.012412179261446,-0.00813985988497734,0.0053160530515015125,0.007623740937560797,-0.020030662417411804,0.012738674879074097,0.002080189995467663,-0.00813985988497734,0.0053160530515015125,0.007623740937560797,-0.020030662417411804,0.012738674879074097,-0.12169774621725082,-0.08242359757423401,-0.027176227420568466
0.2938249707221985,-0.23192152380943298,0.18423883616924286,0.2351178675889969,-0.029476618394255638,0.16564242541790009,0.08829177916049957,0.1259274035692215,-0.0020230384543538094,0.1678425818681717,0.04954241216182709,0.20996218919754028,0.1367712914943695,0.2822521924972534,-0.021327544003725052,0.18572768568992615,-0.02959151193499565,-0.021327544003725052,0.08829177916049957,-0.020094214007258415,0.007817082107067108,-0.03804817795753479,0.0008768780389800668,0.2484704554080963,0.15642684698104858,0.04954241216182709,0.062433578073978424,-0.002942129038274288,-0.02811255306005478,0.005188167095184326,0.015212932601571083,0.015212932601571083,-0.012270801700651646,-0.008169292472302914,0.0053713684901595116,0.007703399285674095,-0.019920477643609047,0.013047466054558754,0.0015516160055994987,-0.008169292472302914,0.0053713684901595116,0.007703399285674095,-0.019920477643609047,0.013047466054558754,-0.12149790674448013,-0.0820571631193161,-0.026814855635166168
0.2948693633079529,-0.2304685264825821,0.18417711555957794,0.23515482246875763,-0.02951771207153797,0.16561481356620789,0.08775145560503006,0.125535249710083,-0.0023254775442183018,0.16809090971946716,0.049312934279441833,0.2100074291229248,0.13625787198543549,0.2824968099594116,-0.02127574011683464,0.18512222170829773,-0.029325908049941063,-0.02127574011683464,0.08775145560503006,-0.020069574937224388,0.00789899192750454,-0.03807920217514038,0.0008860614616423845,0.248319610953331,0.15657852590084076,0.049312934279441833,0.0618593767285347,-0.0028889726381748915,-0.028134088963270187,0.005241053178906441,0.015018862672150135,0.015018862672150135,-0.01212988793849945,-0.008198712021112442,0.0054265460930764675,0.007782862521708012,-0.01981067657470703,0.013355239294469357,0.0010247556492686272,-0.008198712021112442,0.0054265460930764675,0.007782862521708012,-0.01981067657470703,0.013355239294469357,-0.12129813432693481,-0.08169141411781311,-0.026454243808984756
0.29591089487075806,-0.22901876270771027,0.1841147243976593,0.23519068956375122,-0.029558271169662476,0.16558656096458435,0.08721281588077545,0.1251448094844818,-0.0026273606345057487,0.1683383584022522,0.04908384382724762,0.21005165576934814,0.1357467770576477,0.28273990750312805,-0.021224044263362885,0.1845187246799469,-0.029062267392873764,-0.021224044263362885,0.08721281588077545,-0.020044833421707153,0.007980728521943092,-0.03811035677790642,0.0008952245116233826,0.2481691986322403,0.1567295342683792,0.04908384382724762,0.06128697842359543,-0.0028361345175653696,-0.028155677020549774,0.005293799564242363,0.014825573191046715,0.014825573191046715,-0.011989442631602287,-0.008228116668760777,0.005481584928929806,0.00786212831735611,-0.019701257348060608,0.013662012293934822,0.0004996350035071373,-0.008228116668760777,0.005481584928929806,0.00786212831735611,-0.019701257348060608,0.013662012293934822,-0.12109841406345367,-0.08132631331682205,-0.02609441801905632
0.296949565410614,-0.2275722175836563,0.1840517371892929,0.2352256029844284,-0.029598291963338852,0.1655575931072235,0.08667588979005814,0.1247561126947403,-0.0029286732897162437,0.1685849279165268,0.048855166882276535,0.21009480953216553,0.13523806631565094,0.28298136591911316,-0.02117244526743889,0.18391716480255127,-0.028800582513213158,-0.02117244526743889,0.08667588979005814,-0.02001999318599701,0.008062290027737617,-0.038141630589962006,0.0009043669560924172,0.24801909923553467,0.15687988698482513,0.048855166882276535,0.06071637570858002,-0.0027836107183247805,-0.02817731723189354,0.0053464085794985294,0.014633065089583397,0.014633065089583397,-0.011849457398056984,-0.008257504552602768,0.005536487326025963,0.007941199466586113,-0.019592219963669777,0.013967785984277725,-2.3786909878253937e-05,-0.008257504552602768,0.005536487326025963,0.007941199466586113,-0.019592219963669777,0.013967785984277725,-0.1208987683057785,-0.08096189051866531,-0.02573532983660698
0.2979854345321655,-0.22612878680229187,0.18398809432983398,0.23525947332382202,-0.029637793079018593,0.16552796959877014,0.08614057302474976,0.12436915934085846,-0.003229402471333742,0.16883061826229095,0.048626914620399475,0.21013697981834412,0.13473176956176758,0.2832212448120117,-0.021120931953191757,0.18331751227378845,-0.028540903702378273,-0.021120931953191757,0.08614057302474976,-0.019995059818029404,0.008143680170178413,-0.03817302733659744,0.0009134890278801322,0.24786929786205292,0.15702959895133972,0.048626914620399475,0.060147568583488464,-0.0027314035687595606,-0.028199002146720886,0.005398879759013653,0.014441327191889286,0.014441327191889286,-0.011709928512573242,-0.008286876603960991,0.005591253750026226,0.008020076900720596,-0.019483568146824837,0.014272552914917469,-0.0005455287173390388,-0.008286876603960991,0.005591253750026226,0.008020076900720596,-0.019483568146824837,0.014272552914917469,-0.12069915235042572,-0.0805981233716011,-0.025377005338668823
0.2990185022354126,-0.22468852996826172,0.18392382562160492,0.23529227077960968,-0.02967675030231476,0.16549769043922424,0.08560696989297867,0.12398388236761093,-0.0035295700654387474,0.16907545924186707,0.04839904606342316,0.21017815172672272,0.13422776758670807,0.28345954418182373,-0.021069519221782684,0.18271979689598083,-0.028283115476369858,-0.021069519221782684,0.08560696989297867,-0.01997002400457859,0.00822489708662033,-0.03820455074310303,0.0009225906105712056,0.2477198839187622,0.15717869997024536,0.04839904606342316,0.05958055704832077,-0.0026795039884746075,-0.028220735490322113,0.005451214499771595,0.014250347390770912,0.014250347390770912,-0.011570843867957592,-0.008316232822835445,0.005645882338285446,0.00809875875711441,-0.019375283271074295,0.014576343819499016,-0.001065514050424099,-0.008316232822835445,0.005645882338285446,0.00809875875711441,-0.019375283271074295,0.014576343819499016,-0.12049958854913712,-0.08023503422737122,-0.025019429624080658
0.30004867911338806,-0.22325143218040466,0.1838589310646057,0.23532414436340332,-0.02971518598496914,0.16546674072742462,0.08507503569126129,0.1236003041267395,-0.0038291607052087784,0.16931945085525513,0.04817160964012146,0.21021829545497894,0.13372616469860077,0.2836962044239044,-0.021018192172050476,0.18212392926216125,-0.02802732028067112,-0.021018192172050476,0.08507503569126129,-0.019944891333580017,0.00830594077706337,-0.03823620080947876,0.0009316717041656375,0.24757073819637299,0.15732713043689728,0.04817160964012146,0.05901527404785156,-0.0026279191952198744,-0.02824251726269722,0.005503412336111069,0.014060130342841148,0.014060130342841148,-0.011432221159338951,-0.008345571346580982,0.005700374953448772,0.00817724596709013,-0.019267374649643898,0.014879129827022552,-0.0015838509425520897,-0.008345571346580982,0.005700374953448772,0.00817724596709013,-0.019267374649643898,0.014879129827022552,-0.12030009180307388,-0.07987257093191147,-0.024662598967552185
0.3010760545730591,-0.22181743383407593,0.18379341065883636,0.235354945063591,-0.029753098264336586,0.16543510556221008,0.08454474061727524,0.12321840226650238,-0.004128179047256708,0.16956254839897156,0.047944553196430206,0.21025744080543518,0.13322676718235016,0.2839313745498657,-0.02096695452928543,0.18152999877929688,-0.027773380279541016,-0.02096695452928543,0.08454474061727524,-0.019919663667678833,0.00838681124150753,-0.03826795518398285,0.0009407323086634278,0.2474219799041748,0.15747490525245667,0.047944553196430206,0.05845174938440323,-0.0025766361504793167,-0.028264334425330162,0.005555473268032074,0.013870680704712868,0.013870680704712868,-0.011294043622910976,-0.008374892175197601,0.0057547325268387794,0.00825553946197033,-0.019159836694598198,0.01518094353377819,-0.0021004891023039818,-0.008374892175197601,0.0057547325268387794,0.00825553946197033,-0.019159836694598198,0.01518094353377819,-0.12010061740875244,-0.07951080799102783,-0.02430650219321251
0.30210065841674805,-0.2203865647315979,0.18372732400894165,0.23538480699062347,-0.029790489003062248,0.16540291905403137,0.08401606976985931,0.12283816188573837,-0.0044266232289373875,0.16980482637882233,0.04771793633699417,0.21029557287693024,0.13272973895072937,0.2841649055480957,-0.02091580629348755,0.18093793094158173,-0.027521375566720963,-0.02091580629348755,0.08401606976985931,-0.01989433914422989,0.008467510342597961,-0.03829983249306679,0.0009497726568952203,0.24727347493171692,0.1576220840215683,0.04771793633699417,0.05788996443152428,-0.0025256669614464045,-0.028286196291446686,0.00560739915817976,0.013681979849934578,0.013681979849934578,-0.011156312189996243,-0.008404196240007877,0.005808954127132893,0.008333640173077583,-0.019052673131227493,0.015481759794056416,-0.002615460194647312,-0.008404196240007877,0.005808954127132893,0.008333640173077583,-0.019052673131227493,0.015481759794056416,-0.11990121752023697,-0.07914964854717255,-0.02395116351544857
0.30312246084213257,-0.21895873546600342,0.1836605668067932,0.23541359603405,-0.029827352613210678,0.16537001729011536,0.08348902314901352,0.12245957553386688,-0.004724492784589529,0.17004618048667908,0.04749169945716858,0.21033278107643127,0.13223503530025482,0.2843969166278839,-0.020864740014076233,0.1803477704524994,-0.027271324768662453,-0.020864740014076233,0.08348902314901352,-0.019868912175297737,0.008548034355044365,-0.03833182528614998,0.0009587925160303712,0.2471252679824829,0.1577686071395874,0.04749169945716858,0.05732995644211769,-0.0024749964941293,-0.028308093547821045,0.005659190006554127,0.013494019396603107,0.013494019396603107,-0.011019015684723854,-0.008433478884398937,0.0058630406856536865,0.008411547169089317,-0.018945863470435143,0.01578161120414734,-0.003128749318420887,-0.008433478884398937,0.0058630406856536865,0.008411547169089317,-0.018945863470435143,0.01578161120414734,-0.1197018250823021,-0.07878915220499039,-0.02359653264284134
0.30414146184921265,-0.21753405034542084,0.1835932433605194,0.23544149100780487,-0.02986370027065277,0.1653364896774292,0.08296359330415726,0.1220826804637909,-0.005021792836487293,0.17028671503067017,0.04726589471101761,0.21036896109580994,0.13174252212047577,0.28462737798690796,-0.02081375941634178,0.17975938320159912,-0.02702307514846325,-0.02081375941634178,0.08296359330415726,-0.01984339766204357,0.008628390729427338,-0.03836393728852272,0.0009677919442765415,0.24697738885879517,0.15791451930999756,0.04726589471101761,0.05677162855863571,-0.0024246356915682554,-0.028330033645033836,0.005710845813155174,0.013306806795299053,0.013306806795299053,-0.010882179252803326,-0.00846274383366108,0.005916992202401161,0.00848926231265068,-0.018839433789253235,0.016080468893051147,-0.0036403806880116463,-0.00846274383366108,0.005916992202401161,0.00848926231265068,-0.018839433789253235,0.016080468893051147,-0.1195024698972702,-0.07842931151390076,-0.02324264869093895
0.30515772104263306,-0.21611237525939941,0.18352530896663666,0.2354682981967926,-0.02989954501390457,0.1653023064136505,0.08243981003761292,0.12170743942260742,-0.00531851127743721,0.1705264002084732,0.04704046994447708,0.21040421724319458,0.13125233352184296,0.284856379032135,-0.020762868225574493,0.17917287349700928,-0.026776693761348724,-0.020762868225574493,0.08243981003761292,-0.019817784428596497,0.008708573877811432,-0.03839614987373352,0.0009767708834260702,0.24682985246181488,0.15805977582931519,0.04704046994447708,0.05621499568223953,-0.0023745703510940075,-0.028352003544569016,0.0057623665779829025,0.013120322488248348,0.013120322488248348,-0.010745760053396225,-0.008491989225149155,0.005970810540020466,0.008566783741116524,-0.018733356148004532,0.016378387808799744,-0.004150380380451679,-0.008491989225149155,0.005970810540020466,0.008566783741116524,-0.018733356148004532,0.016378387808799744,-0.11930317431688309,-0.07807008177042007,-0.022889485582709312
0.306171178817749,-0.21469372510910034,0.18345674872398376,0.2354942113161087,-0.029934855177998543,0.16526754200458527,0.08191759884357452,0.1213337630033493,-0.005614662077277899,0.1707652509212494,0.04681544750928879,0.21043848991394043,0.13076433539390564,0.28508371114730835,-0.020712047815322876,0.17858824133872986,-0.02653217874467373,-0.020712047815322876,0.08191759884357452,-0.01979207806289196,0.008788585662841797,-0.03842848166823387,0.0009857297409325838,0.2466825544834137,0.15820443630218506,0.04681544750928879,0.055660098791122437,-0.0023248058278113604,-0.02837400697171688,0.005813754163682461,0.012934589758515358,0.012934589758515358,-0.010609777644276619,-0.008521213196218014,0.006024494767189026,0.008644115179777145,-0.01862763613462448,0.016675300896167755,-0.004658733494579792,-0.008521213196218014,0.006024494767189026,0.008644115179777145,-0.01862763613462448,0.016675300896167755,-0.11910389363765717,-0.07771151512861252,-0.02253703400492668
0.3071819245815277,-0.213278129696846,0.18338759243488312,0.23551908135414124,-0.029969679191708565,0.1652321070432663,0.08139699697494507,0.12096178531646729,-0.005910228937864304,0.17100322246551514,0.04659084975719452,0.21047183871269226,0.1302785724401474,0.2853095829486847,-0.02066132239997387,0.17800533771514893,-0.026289498433470726,-0.02066132239997387,0.08139699697494507,-0.019766276702284813,0.008868426084518433,-0.03846092149615288,0.0009946681093424559,0.24653556942939758,0.1583484411239624,0.04659084975719452,0.05510694161057472,-0.002275335369631648,-0.02839604765176773,0.005865007638931274,0.012749570421874523,0.012749570421874523,-0.010474229231476784,-0.008550417609512806,0.006078044883906841,0.008721252903342247,-0.01852228306233883,0.016971275210380554,-0.005165408365428448,-0.008550417609512806,0.006078044883906841,0.008721252903342247,-0.01852228306233883,0.016971275210380554,-0.11890461295843124,-0.0773535668849945,-0.022185318171977997
0.30818992853164673,-0.21186548471450806,0.1833178997039795,0.23554298281669617,-0.030003972351551056,0.16519607603549957,0.08087797462940216,0.12059137225151062,-0.006205226294696331,0.17124037444591522,0.046366650611162186,0.2105041891336441,0.12979501485824585,0.28553393483161926,-0.020610660314559937,0.1774243414402008,-0.026048693805933,-0.020610660314559937,0.08087797462940216,-0.019740380346775055,0.008948097005486488,-0.03849346190690994,0.00100358622148633,0.24638885259628296,0.15849186480045319,0.046366650611162186,0.05455545336008072,-0.0022261657286435366,-0.02841811254620552,0.005916127935051918,0.012565265409648418,0.012565265409648418,-0.010339099913835526,-0.008579598739743233,0.006131462752819061,0.008798199705779552,-0.018417272716760635,0.0172662902623415,-0.005670470185577869,-0.008579598739743233,0.006131462752819061,0.008798199705779552,-0.018417272716760635,0.0172662902623415,-0.11870541423559189,-0.07699625939130783,-0.02183431386947632
